; G-Code generated by Simplify3D(R) Version 3.0.1
; Sep 23, 2015 at 2:39:15 PM
; Settings Summary
;   processName,Rob Replicator2 low Infill High Quality
;   applyToModels,FirgPushRodAndSixHole
;   profileName,MakerBot Replicator 2 (modified)
;   profileVersion,2015-05-01 08:00:00
;   baseProfile,
;   printMaterial,PLA
;   printQuality,High
;   printExtruders,
;   extruderName,Primary Extruder
;   extruderToolheadNumber,0
;   extruderDiameter,0.4
;   extruderAutoWidth,0
;   extruderWidth,0.4
;   extrusionMultiplier,0.9
;   extruderUseRetract,1
;   extruderRetractionDistance,1
;   extruderExtraRestartDistance,0
;   extruderRetractionZLift,0
;   extruderRetractionSpeed,1200
;   extruderUseCoasting,0
;   extruderCoastingDistance,0.2
;   extruderUseWipe,0
;   extruderWipeDistance,5
;   primaryExtruder,0
;   layerHeight,0.1
;   topSolidLayers,4
;   bottomSolidLayers,4
;   perimeterOutlines,2
;   printPerimetersInsideOut,1
;   startPointOption,2
;   startPointOriginX,0
;   startPointOriginY,0
;   startPointOriginZ,300
;   sequentialIslands,0
;   spiralVaseMode,0
;   firstLayerHeightPercentage,90
;   firstLayerWidthPercentage,100
;   firstLayerUnderspeed,0.5
;   useRaft,1
;   raftExtruder,0
;   raftLayers,3
;   raftOffset,3
;   raftSeparationDistance,0.14
;   raftInfill,85
;   disableRaftBaseLayers,0
;   useSkirt,1
;   skirtExtruder,0
;   skirtLayers,2
;   skirtOutlines,2
;   skirtOffset,4
;   usePrimePillar,0
;   primePillarExtruder,999
;   primePillarWidth,12
;   primePillarLocation,7
;   primePillarSpeedMultiplier,1
;   useOozeShield,0
;   oozeShieldExtruder,999
;   oozeShieldOffset,2
;   oozeShieldOutlines,1
;   oozeShieldSidewallShape,1
;   oozeShieldSidewallAngle,30
;   oozeShieldSpeedMultiplier,1
;   infillExtruder,0
;   internalInfillPattern,Rectilinear
;   externalInfillPattern,Rectilinear
;   infillPercentage,100
;   outlineOverlapPercentage,20
;   infillExtrusionWidthPercentage,100
;   minInfillLength,5
;   infillLayerInterval,1
;   infillAngles,45,-45
;   overlapInfillAngles,0
;   generateSupport,1
;   supportExtruder,0
;   supportInfillPercentage,40
;   supportExtraInflation,0
;   denseSupportLayers,0
;   denseSupportInfillPercentage,70
;   supportLayerInterval,1
;   supportHorizontalPartOffset,0.3
;   supportUpperSeparationLayers,1
;   supportLowerSeparationLayers,1
;   supportType,0
;   supportGridSpacing,4
;   maxOverhangAngle,45
;   supportAngles,0
;   temperatureName,Primary Extruder
;   temperatureNumber,0
;   temperatureSetpointCount,1
;   temperatureSetpointLayers,1
;   temperatureSetpointTemperatures,215
;   temperatureStabilizeAtStartup,0
;   temperatureHeatedBed,0
;   temperatureRelayBetweenLayers,0
;   temperatureRelayBetweenLoops,0
;   fanLayers,1,2
;   fanSpeeds,0,100
;   blipFanToFullPower,0
;   adjustSpeedForCooling,1
;   minSpeedLayerTime,15
;   minCoolingSpeedSlowdown,20
;   increaseFanForCooling,0
;   minFanLayerTime,45
;   maxCoolingFanSpeed,100
;   increaseFanForBridging,0
;   bridgingFanSpeed,100
;   use5D,1
;   relativeEdistances,1
;   allowEaxisZeroing,0
;   independentExtruderAxes,1
;   includeM10123,0
;   stickySupport,1
;   applyToolheadOffsets,0
;   gcodeXoffset,0
;   gcodeYoffset,0
;   gcodeZoffset,0
;   overrideMachineDefinition,1
;   machineTypeOverride,0
;   strokeXoverride,280
;   strokeYoverride,150
;   strokeZoverride,150
;   originOffsetXoverride,140
;   originOffsetYoverride,75
;   originOffsetZoverride,0
;   homeXdirOverride,1
;   homeYdirOverride,1
;   homeZdirOverride,-1
;   flipXoverride,1
;   flipYoverride,-1
;   flipZoverride,1
;   toolheadOffsets,0,0|0,0|0,0|0,0|0,0|0,0
;   overrideFirmwareConfiguration,1
;   firmwareTypeOverride,MakerBot/Sailfish Firmware
;   GPXconfigOverride,r2
;   baudRateOverride,115200
;   overridePrinterModels,1
;   printerModelsOverride,MakerBot_Replicator2.stl
;   startingGcode,; **** Replicator 2 start.gcode ****,M73 P0 ; enable build progress,G162 X Y F3000 ; home XY maximum,G161 Z F1200 ; home Z minimum,G92 Z-5 ; set Z to -5,G1 Z0 ; move Z to 0,G161 Z F100 ; home Z slowly,M132 X Y Z A B ; recall home offsets,G1 X-145 Y-75 Z30 F9000 ; move to wait position off table,G130 X20 Y20 Z20 A20 B20 ; lower stepper Vrefs while heating,M126 S[fan_speed_pwm],M104 S[extruder0_temperature] T0,M133 T0 ; stabilize extruder temperature,G130 X127 Y127 Z40 A127 B127 ; default stepper Vrefs,G92 A0 ; zero extruder,G1 Z0.4 ; position nozzle,G1 E25 F300 ; purge nozzle,G1 X-140 Y-70 Z0.15 F1200 ; slow wipe,G1 X-135 Y-65 Z0.5 F1200 ; lift,G92 A0 ; zero extruder,M73 P1 ;@body (notify GPX body has started),; **** end of start.gcode ****
;   layerChangeGcode,
;   retractionGcode,
;   toolChangeGcode,
;   endingGcode,; **** Replicator 2 end.gcode ****,M73 P100 ; end build progress,G1 Z155 F1000 ; send Z axis to bottom of machine,M104 S0 T0 ; cool down extruder,M127 ; stop blower fan,G162 X Y F3000 ; home XY maximum,M18 ; disable stepper,M72 P1 ; play Ta-Da song,; **** end of end.gcode ****
;   createX3G,1
;   celebration,0
;   celebrationSong,Random Song
;   createMB5G,0
;   postProcessing,
;   defaultSpeed,4800
;   outlineUnderspeed,0.5
;   solidInfillUnderspeed,0.8
;   supportUnderspeed,0.8
;   rapidXYspeed,9000
;   rapidZspeed,1200
;   minBridgingArea,50
;   bridgingExtraInflation,0
;   bridgingExtrusionMultiplier,1
;   bridgingSpeedMultiplier,0.8
;   filamentDiameter,1.75
;   filamentPricePerKg,46
;   filamentDensity,1.25
;   useMinPrintHeight,0
;   minPrintHeight,0
;   useMaxPrintHeight,0
;   maxPrintHeight,0
;   useDiaphragm,0
;   diaphragmLayerInterval,20
;   robustSlicing,1
;   mergeAllIntoSolid,0
;   onlyRetractWhenCrossingOutline,1
;   retractBetweenLayers,1
;   useRetractionMinTravel,0
;   retractionMinTravel,3
;   retractWhileWiping,0
;   onlyWipeOutlines,1
;   avoidCrossingOutline,0
;   maxMovementDetourFactor,3
;   toolChangeRetractionDistance,12
;   toolChangeExtraRestartDistance,-0.5
;   toolChangeRetractionSpeed,600
;   allowThinWallGapFill,1
;   thinWallAllowedOverlapPercentage,10
;   horizontalSizeCompensation,0
G90
M83
; **** Replicator 2 start.gcode ****
M73 P0 ; enable build progress
G162 X Y F3000 ; home XY maximum
G161 Z F1200 ; home Z minimum
G92 Z-5 ; set Z to -5
G1 Z0 ; move Z to 0
G161 Z F100 ; home Z slowly
M132 X Y Z A B ; recall home offsets
G1 X-145 Y-75 Z30 F9000 ; move to wait position off table
G130 X20 Y20 Z20 A20 B20 ; lower stepper Vrefs while heating
M127
M104 S215 T0
M133 T0 ; stabilize extruder temperature
G130 X127 Y127 Z40 A127 B127 ; default stepper Vrefs
G92 A0 ; zero extruder
G1 Z0.4 ; position nozzle
G1 E25 F300 ; purge nozzle
G1 X-140 Y-70 Z0.15 F1200 ; slow wipe
G1 X-135 Y-65 Z0.5 F1200 ; lift
G92 A0 ; zero extruder
M73 P1 ;@body (notify GPX body has started)
; **** end of start.gcode ****
G1 E-1.0000 F1200
G1 Z0.450 F1200
; layer 1, Z = 0.45
M135 T0
; tool H0.500 W0.400
; skirt
G1 X10.120 Y16.669 F9000
G1 E1.0000 F360
G1 X-20.732 Y16.669 E2.3088 F2400
G1 X-20.848 Y16.646 E0.0088
G1 X-22.427 Y15.992 E0.1279
G1 X-22.526 Y15.926 E0.0088
G1 X-22.783 Y15.669 E0.0272
G1 X-40.620 Y15.669 E1.3348
G1 X-40.736 Y15.646 E0.0088
G1 X-42.315 Y14.992 E0.1279
G1 X-42.413 Y14.926 E0.0088
G1 X-46.551 Y10.788 E0.4379
G1 X-46.617 Y10.690 E0.0088
G1 X-47.271 Y9.111 E0.1279
G1 X-47.294 Y8.995 E0.0088
G1 X-47.294 Y-8.995 E1.3462
G1 X-47.271 Y-9.111 E0.0088
G1 X-46.617 Y-10.690 E0.1279
G1 X-46.551 Y-10.788 E0.0088
G1 X-42.413 Y-14.926 E0.4379
G1 X-42.315 Y-14.992 E0.0088
G1 X-40.736 Y-15.646 E0.1279
G1 X-40.620 Y-15.669 E0.0088
G1 X-22.783 Y-15.669 E1.3348
G1 X-22.526 Y-15.926 E0.0272
G1 X-22.427 Y-15.992 E0.0088
G1 X-20.848 Y-16.646 E0.1279
G1 X-20.732 Y-16.669 E0.0088
G1 X10.120 Y-16.669 E2.3088
G1 X10.236 Y-16.646 E0.0088
G1 X11.815 Y-15.992 E0.1279
G1 X11.913 Y-15.926 E0.0088
G1 X12.803 Y-15.036 E0.0942
G1 X13.186 Y-15.563 E0.0488
G1 X13.252 Y-15.630 E0.0070
G1 X14.343 Y-16.426 E0.1010
G1 X14.426 Y-16.469 E0.0070
G1 X21.754 Y-18.891 E0.5776
G1 X21.871 Y-18.906 E0.0089
G1 X23.582 Y-18.778 E0.1284
G1 X23.696 Y-18.746 E0.0089
G1 X28.935 Y-16.094 E0.4395
G1 X29.028 Y-16.020 E0.0089
G1 X30.144 Y-14.718 E0.1284
G1 X30.202 Y-14.614 E0.0089
G1 X30.532 Y-13.600 E0.0798
G1 X40.620 Y-13.600 E0.7549
G1 X40.736 Y-13.577 E0.0088
G1 X42.315 Y-12.923 E0.1279
G1 X42.413 Y-12.857 E0.0088
G1 X46.551 Y-8.719 E0.4379
G1 X46.617 Y-8.621 E0.0088
G1 X47.271 Y-7.042 E0.1279
G1 X47.294 Y-6.926 E0.0088
G1 X47.294 Y6.926 E1.0366
G1 X47.271 Y7.042 E0.0088
G1 X46.617 Y8.621 E0.1279
G1 X46.551 Y8.719 E0.0088
G1 X42.413 Y12.857 E0.4379
G1 X42.315 Y12.923 E0.0088
G1 X40.736 Y13.577 E0.1279
G1 X40.620 Y13.600 E0.0088
G1 X30.532 Y13.600 E0.7549
G1 X30.202 Y14.614 E0.0798
G1 X30.144 Y14.718 E0.0089
G1 X29.028 Y16.020 E0.1284
G1 X28.935 Y16.094 E0.0089
G1 X23.696 Y18.746 E0.4395
G1 X23.582 Y18.778 E0.0089
G1 X21.871 Y18.906 E0.1284
G1 X21.754 Y18.891 E0.0089
G1 X14.412 Y16.464 E0.5786
G1 X14.329 Y16.421 E0.0071
G1 X13.233 Y15.618 E0.1016
G1 X13.167 Y15.551 E0.0071
G1 X12.799 Y15.040 E0.0471
G1 X11.913 Y15.926 E0.0937
G1 X11.815 Y15.992 E0.0088
G1 X10.236 Y16.646 E0.1279
G1 X10.120 Y16.669 E0.0088
G1 X10.080 Y16.269 F9000
G1 X-20.693 Y16.269 E2.3029 F2400
G1 X-20.731 Y16.261 E0.0029
G1 X-22.238 Y15.637 E0.1220
G1 X-22.271 Y15.615 E0.0029
G1 X-22.617 Y15.269 E0.0367
G1 X-40.580 Y15.269 E1.3443
G1 X-40.619 Y15.261 E0.0029
G1 X-42.125 Y14.637 E0.1220
G1 X-42.158 Y14.615 E0.0029
G1 X-46.240 Y10.533 E0.4320
G1 X-46.262 Y10.500 E0.0029
G1 X-46.886 Y8.994 E0.1220
G1 X-46.894 Y8.955 E0.0029
G1 X-46.894 Y-8.955 E1.3403
G1 X-46.886 Y-8.994 E0.0029
G1 X-46.262 Y-10.500 E0.1220
G1 X-46.240 Y-10.533 E0.0029
G1 X-42.158 Y-14.615 E0.4320
G1 X-42.125 Y-14.637 E0.0029
G1 X-40.619 Y-15.261 E0.1220
G1 X-40.580 Y-15.269 E0.0029
G1 X-22.617 Y-15.269 E1.3443
G1 X-22.271 Y-15.615 E0.0367
G1 X-22.238 Y-15.637 E0.0029
G1 X-20.731 Y-16.261 E0.1220
G1 X-20.693 Y-16.269 E0.0029
G1 X10.080 Y-16.269 E2.3029
G1 X10.119 Y-16.261 E0.0029
G1 X11.625 Y-15.637 E0.1220
G1 X11.658 Y-15.615 E0.0029
G1 X12.851 Y-14.422 E0.1263
G1 X13.492 Y-15.303 E0.0815
G1 X13.514 Y-15.325 E0.0023
G1 X14.553 Y-16.084 E0.0964
G1 X14.581 Y-16.099 E0.0023
G1 X21.842 Y-18.499 E0.5723
G1 X21.881 Y-18.504 E0.0030
G1 X23.512 Y-18.382 E0.1224
G1 X23.551 Y-18.371 E0.0030
G1 X28.719 Y-15.755 E0.4335
G1 X28.750 Y-15.730 E0.0030
G1 X29.815 Y-14.487 E0.1224
G1 X29.834 Y-14.453 E0.0030
G1 X30.241 Y-13.200 E0.0986
G1 X40.580 Y-13.200 E0.7737
G1 X40.619 Y-13.192 E0.0029
G1 X42.125 Y-12.568 E0.1220
G1 X42.158 Y-12.546 E0.0029
G1 X46.240 Y-8.464 E0.4320
G1 X46.262 Y-8.432 E0.0029
G1 X46.886 Y-6.925 E0.1220
G1 X46.894 Y-6.886 E0.0029
G1 X46.894 Y6.886 E1.0307
G1 X46.886 Y6.925 E0.0029
G1 X46.262 Y8.432 E0.1220
G1 X46.240 Y8.464 E0.0029
G1 X42.158 Y12.546 E0.4320
G1 X42.125 Y12.568 E0.0029
G1 X40.619 Y13.192 E0.1220
G1 X40.580 Y13.200 E0.0029
G1 X30.241 Y13.200 E0.7737
G1 X29.834 Y14.453 E0.0986
G1 X29.815 Y14.487 E0.0030
G1 X28.750 Y15.730 E0.1224
G1 X28.719 Y15.755 E0.0030
G1 X23.551 Y18.371 E0.4335
G1 X23.512 Y18.382 E0.0030
G1 X21.881 Y18.504 E0.1224
G1 X21.842 Y18.499 E0.0030
G1 X14.568 Y16.094 E0.5733
G1 X14.540 Y16.080 E0.0023
G1 X13.495 Y15.314 E0.0969
G1 X13.473 Y15.292 E0.0024
G1 X12.848 Y14.425 E0.0799
G1 X11.658 Y15.615 E0.1259
G1 X11.625 Y15.637 E0.0029
G1 X10.119 Y16.261 E0.1220
G1 X10.080 Y16.269 E0.0029
; tool H0.500 W0.800
; raft
G1 X9.099 Y11.669 F9000
G1 X-19.712 Y11.669 E4.3121 F600
G1 X-20.712 Y10.669 E0.2117
G1 X-39.599 Y10.669 E2.8269
G1 X-42.294 Y7.974 E0.5704
G1 X-42.294 Y-7.974 E2.3870
G1 X-39.599 Y-10.669 E0.5704
G1 X-20.712 Y-10.669 E2.8269
G1 X-19.712 Y-11.669 E0.2117
G1 X9.099 Y-11.669 E4.3121
G1 X11.794 Y-8.974 E0.5704
G1 X11.794 Y-1.118 E1.1759
G1 X10.676 Y0.000 E0.2365
G1 X11.794 Y1.118 E0.2365
G1 X11.794 Y8.974 E1.1759
G1 X9.099 Y11.669 E0.5704
G1 X15.006 Y9.552 F9000
G1 X15.028 Y-1.114 E1.5965 F600
G1 X15.006 Y-1.974 E0.1287
G1 X15.009 Y-2.160 E0.0278
G1 X15.025 Y-2.458 E0.0446
G1 X15.006 Y-2.831 E0.0560
G1 X15.008 Y-3.108 E0.0415
G1 X15.027 Y-3.387 E0.0419
G1 X15.006 Y-7.524 E0.6192
G1 X15.006 Y-7.550 E0.0039
G1 X15.017 Y-9.577 E0.3033
G1 X16.759 Y-11.974 E0.4434
G1 X22.351 Y-13.823 E0.8816
G1 X25.763 Y-12.095 E0.5724
G1 X26.899 Y-8.600 E0.5501
G1 X39.599 Y-8.600 E1.9008
G1 X42.294 Y-5.905 E0.5704
G1 X42.294 Y5.905 E1.7677
G1 X39.599 Y8.600 E0.5704
G1 X26.899 Y8.600 E1.9008
G1 X25.763 Y12.095 E0.5501
G1 X22.351 Y13.823 E0.5724
G1 X16.750 Y11.971 E0.8830
G1 X15.006 Y9.552 E0.4462
G1 X10.494 Y9.143 F9000
G1 X-39.994 Y9.143 E7.5565 F600
G1 X-41.494 Y7.643 E0.3175
G1 X-41.494 Y6.857 E0.1176
G1 X10.994 Y6.857 E7.8559
G1 X10.994 Y4.571 E0.3421
G1 X-41.494 Y4.571 E7.8559
G1 X-41.494 Y2.286 E0.3421
G1 X10.994 Y2.286 E7.8559
G1 X10.994 Y1.449 E0.1252
G1 X9.545 Y0.000 E0.3067
G1 X-41.494 Y0.000 E7.6390
G1 X-41.494 Y-2.286 E0.3421
G1 X10.994 Y-2.286 E7.8559
G1 X10.994 Y-4.571 E0.3421
G1 X-41.494 Y-4.571 E7.8559
G1 X-41.494 Y-6.857 E0.3421
G1 X10.994 Y-6.857 E7.8559
G1 X10.994 Y-8.643 E0.2673
G1 X10.494 Y-9.143 E0.1058
G1 X-39.994 Y-9.143 E7.5565
G1 X17.658 Y-11.429 F9000
G1 X25.139 Y-11.429 E1.1196 F600
G1 X25.881 Y-9.143 E0.3597
G1 X15.815 Y-9.143 E1.5067
G1 X15.806 Y-7.548 E0.2387
G1 X15.806 Y-7.527 E0.0032
G1 X15.810 Y-6.857 E0.1002
G1 X40.211 Y-6.857 E3.6521
G1 X41.494 Y-5.574 E0.2716
G1 X41.494 Y-4.571 E0.1501
G1 X15.821 Y-4.571 E3.8424
G1 X15.828 Y-3.362 E0.1810
G1 X15.808 Y-3.077 E0.0427
G1 X15.806 Y-2.848 E0.0343
G1 X15.827 Y-2.456 E0.0588
G1 X15.817 Y-2.286 E0.0256
G1 X41.494 Y-2.286 E3.8430
G1 X41.494 Y0.000 E0.3421
G1 X15.826 Y0.000 E3.8417
G1 X15.821 Y2.286 E0.3421
G1 X41.494 Y2.286 E3.8424
G1 X41.494 Y4.571 E0.3421
G1 X15.816 Y4.571 E3.8432
G1 X15.812 Y6.857 E0.3421
G1 X40.211 Y6.857 E3.6518
G1 X39.268 Y7.800 E0.1996
G1 X26.318 Y7.800 E1.9382
G1 X25.881 Y9.143 E0.2113
G1 X15.807 Y9.143 E1.5079
G1 X15.806 Y9.295 E0.0227
G1 X17.247 Y11.293 E0.3686
G1 X17.658 Y11.429 E0.0648
G1 X25.139 Y11.429 E1.1196
G1 E-1.0000 F1200
; layer 2, Z = 0.95
M126 S255
; tool H0.500 W0.400
; skirt
G1 X30.532 Y13.600 F9000
G1 Z0.950 F1200
G1 E1.0000 F1200
G1 X30.202 Y14.614 E0.0798 F4800
G1 X30.144 Y14.718 E0.0089
G1 X29.028 Y16.020 E0.1284
G1 X28.935 Y16.094 E0.0089
G1 X23.696 Y18.746 E0.4395
G1 X23.582 Y18.778 E0.0089
G1 X21.871 Y18.906 E0.1284
G1 X21.754 Y18.891 E0.0089
G1 X14.412 Y16.464 E0.5786
G1 X14.329 Y16.421 E0.0071
G1 X13.233 Y15.618 E0.1016
G1 X13.167 Y15.551 E0.0071
G1 X12.799 Y15.040 E0.0471
G1 X11.913 Y15.926 E0.0937
G1 X11.815 Y15.992 E0.0088
G1 X10.236 Y16.646 E0.1279
G1 X10.120 Y16.669 E0.0088
G1 X-20.732 Y16.669 E2.3088
G1 X-20.848 Y16.646 E0.0088
G1 X-22.427 Y15.992 E0.1279
G1 X-22.526 Y15.926 E0.0088
G1 X-22.783 Y15.669 E0.0272
G1 X-40.620 Y15.669 E1.3348
G1 X-40.736 Y15.646 E0.0088
G1 X-42.315 Y14.992 E0.1279
G1 X-42.413 Y14.926 E0.0088
G1 X-46.551 Y10.788 E0.4379
G1 X-46.617 Y10.690 E0.0088
G1 X-47.271 Y9.111 E0.1279
G1 X-47.294 Y8.995 E0.0088
G1 X-47.294 Y-8.995 E1.3462
G1 X-47.271 Y-9.111 E0.0088
G1 X-46.617 Y-10.690 E0.1279
G1 X-46.551 Y-10.788 E0.0088
G1 X-42.413 Y-14.926 E0.4379
G1 X-42.315 Y-14.992 E0.0088
G1 X-40.736 Y-15.646 E0.1279
G1 X-40.620 Y-15.669 E0.0088
G1 X-22.783 Y-15.669 E1.3348
G1 X-22.526 Y-15.926 E0.0272
G1 X-22.427 Y-15.992 E0.0088
G1 X-20.848 Y-16.646 E0.1279
G1 X-20.732 Y-16.669 E0.0088
G1 X10.120 Y-16.669 E2.3088
G1 X10.236 Y-16.646 E0.0088
G1 X11.815 Y-15.992 E0.1279
G1 X11.913 Y-15.926 E0.0088
G1 X12.803 Y-15.036 E0.0942
G1 X13.186 Y-15.563 E0.0488
G1 X13.252 Y-15.630 E0.0070
G1 X14.343 Y-16.426 E0.1010
G1 X14.426 Y-16.469 E0.0070
G1 X21.754 Y-18.891 E0.5776
G1 X21.871 Y-18.906 E0.0089
G1 X23.582 Y-18.778 E0.1284
G1 X23.696 Y-18.746 E0.0089
G1 X28.935 Y-16.094 E0.4395
G1 X29.028 Y-16.020 E0.0089
G1 X30.144 Y-14.718 E0.1284
G1 X30.202 Y-14.614 E0.0089
G1 X30.532 Y-13.600 E0.0798
G1 X40.620 Y-13.600 E0.7549
G1 X40.736 Y-13.577 E0.0088
G1 X42.315 Y-12.923 E0.1279
G1 X42.413 Y-12.857 E0.0088
G1 X46.551 Y-8.719 E0.4379
G1 X46.617 Y-8.621 E0.0088
G1 X47.271 Y-7.042 E0.1279
G1 X47.294 Y-6.926 E0.0088
G1 X47.294 Y6.926 E1.0366
G1 X47.271 Y7.042 E0.0088
G1 X46.617 Y8.621 E0.1279
G1 X46.551 Y8.719 E0.0088
G1 X42.413 Y12.857 E0.4379
G1 X42.315 Y12.923 E0.0088
