; G-Code generated by Simplify3D(R) Version 3.0.1
; Sep 24, 2015 at 12:58:15 AM
; Settings Summary
;   processName,Rob Replicator2 low Infill High Quality
;   applyToModels,FirgMounts
;   profileName,MakerBot Replicator 2 (modified)
;   profileVersion,2015-05-01 08:00:00
;   baseProfile,
;   printMaterial,PLA
;   printQuality,Fast
;   printExtruders,
;   extruderName,Primary Extruder
;   extruderToolheadNumber,0
;   extruderDiameter,0.4
;   extruderAutoWidth,0
;   extruderWidth,0.4
;   extrusionMultiplier,0.9
;   extruderUseRetract,1
;   extruderRetractionDistance,1
;   extruderExtraRestartDistance,0
;   extruderRetractionZLift,0
;   extruderRetractionSpeed,1200
;   extruderUseCoasting,0
;   extruderCoastingDistance,0.2
;   extruderUseWipe,0
;   extruderWipeDistance,5
;   primaryExtruder,0
;   layerHeight,0.3
;   topSolidLayers,3
;   bottomSolidLayers,3
;   perimeterOutlines,2
;   printPerimetersInsideOut,1
;   startPointOption,2
;   startPointOriginX,0
;   startPointOriginY,0
;   startPointOriginZ,300
;   sequentialIslands,0
;   spiralVaseMode,0
;   firstLayerHeightPercentage,90
;   firstLayerWidthPercentage,100
;   firstLayerUnderspeed,0.5
;   useRaft,1
;   raftExtruder,0
;   raftLayers,3
;   raftOffset,3
;   raftSeparationDistance,0.14
;   raftInfill,85
;   disableRaftBaseLayers,0
;   useSkirt,1
;   skirtExtruder,0
;   skirtLayers,1
;   skirtOutlines,2
;   skirtOffset,4
;   usePrimePillar,0
;   primePillarExtruder,999
;   primePillarWidth,12
;   primePillarLocation,7
;   primePillarSpeedMultiplier,1
;   useOozeShield,0
;   oozeShieldExtruder,999
;   oozeShieldOffset,2
;   oozeShieldOutlines,1
;   oozeShieldSidewallShape,1
;   oozeShieldSidewallAngle,30
;   oozeShieldSpeedMultiplier,1
;   infillExtruder,0
;   internalInfillPattern,Rectilinear
;   externalInfillPattern,Rectilinear
;   infillPercentage,15
;   outlineOverlapPercentage,20
;   infillExtrusionWidthPercentage,100
;   minInfillLength,5
;   infillLayerInterval,1
;   infillAngles,45,-45
;   overlapInfillAngles,0
;   generateSupport,1
;   supportExtruder,0
;   supportInfillPercentage,25
;   supportExtraInflation,0
;   denseSupportLayers,0
;   denseSupportInfillPercentage,70
;   supportLayerInterval,1
;   supportHorizontalPartOffset,0.3
;   supportUpperSeparationLayers,1
;   supportLowerSeparationLayers,1
;   supportType,0
;   supportGridSpacing,4
;   maxOverhangAngle,45
;   supportAngles,0
;   temperatureName,Primary Extruder
;   temperatureNumber,0
;   temperatureSetpointCount,1
;   temperatureSetpointLayers,1
;   temperatureSetpointTemperatures,215
;   temperatureStabilizeAtStartup,0
;   temperatureHeatedBed,0
;   temperatureRelayBetweenLayers,0
;   temperatureRelayBetweenLoops,0
;   fanLayers,1,2
;   fanSpeeds,0,100
;   blipFanToFullPower,0
;   adjustSpeedForCooling,1
;   minSpeedLayerTime,15
;   minCoolingSpeedSlowdown,20
;   increaseFanForCooling,0
;   minFanLayerTime,45
;   maxCoolingFanSpeed,100
;   increaseFanForBridging,0
;   bridgingFanSpeed,100
;   use5D,1
;   relativeEdistances,1
;   allowEaxisZeroing,0
;   independentExtruderAxes,1
;   includeM10123,0
;   stickySupport,1
;   applyToolheadOffsets,0
;   gcodeXoffset,0
;   gcodeYoffset,0
;   gcodeZoffset,0
;   overrideMachineDefinition,1
;   machineTypeOverride,0
;   strokeXoverride,280
;   strokeYoverride,150
;   strokeZoverride,150
;   originOffsetXoverride,140
;   originOffsetYoverride,75
;   originOffsetZoverride,0
;   homeXdirOverride,1
;   homeYdirOverride,1
;   homeZdirOverride,-1
;   flipXoverride,1
;   flipYoverride,-1
;   flipZoverride,1
;   toolheadOffsets,0,0|0,0|0,0|0,0|0,0|0,0
;   overrideFirmwareConfiguration,1
;   firmwareTypeOverride,MakerBot/Sailfish Firmware
;   GPXconfigOverride,r2
;   baudRateOverride,115200
;   overridePrinterModels,1
;   printerModelsOverride,MakerBot_Replicator2.stl
;   startingGcode,; **** Replicator 2 start.gcode ****,M73 P0 ; enable build progress,G162 X Y F3000 ; home XY maximum,G161 Z F1200 ; home Z minimum,G92 Z-5 ; set Z to -5,G1 Z0 ; move Z to 0,G161 Z F100 ; home Z slowly,M132 X Y Z A B ; recall home offsets,G1 X-145 Y-75 Z30 F9000 ; move to wait position off table,G130 X20 Y20 Z20 A20 B20 ; lower stepper Vrefs while heating,M126 S[fan_speed_pwm],M104 S[extruder0_temperature] T0,M133 T0 ; stabilize extruder temperature,G130 X127 Y127 Z40 A127 B127 ; default stepper Vrefs,G92 A0 ; zero extruder,G1 Z0.4 ; position nozzle,G1 E25 F300 ; purge nozzle,G1 X-140 Y-70 Z0.15 F1200 ; slow wipe,G1 X-135 Y-65 Z0.5 F1200 ; lift,G92 A0 ; zero extruder,M73 P1 ;@body (notify GPX body has started),; **** end of start.gcode ****
;   layerChangeGcode,
;   retractionGcode,
;   toolChangeGcode,
;   endingGcode,; **** Replicator 2 end.gcode ****,M73 P100 ; end build progress,G1 Z155 F1000 ; send Z axis to bottom of machine,M104 S0 T0 ; cool down extruder,M127 ; stop blower fan,G162 X Y F3000 ; home XY maximum,M18 ; disable stepper,M72 P1 ; play Ta-Da song,; **** end of end.gcode ****
;   createX3G,1
;   celebration,0
;   celebrationSong,Random Song
;   createMB5G,0
;   postProcessing,
;   defaultSpeed,4800
;   outlineUnderspeed,0.5
;   solidInfillUnderspeed,0.8
;   supportUnderspeed,0.8
;   rapidXYspeed,9000
;   rapidZspeed,1200
;   minBridgingArea,50
;   bridgingExtraInflation,0
;   bridgingExtrusionMultiplier,1
;   bridgingSpeedMultiplier,0.8
;   filamentDiameter,1.75
;   filamentPricePerKg,46
;   filamentDensity,1.25
;   useMinPrintHeight,0
;   minPrintHeight,0
;   useMaxPrintHeight,0
;   maxPrintHeight,0
;   useDiaphragm,0
;   diaphragmLayerInterval,20
;   robustSlicing,1
;   mergeAllIntoSolid,0
;   onlyRetractWhenCrossingOutline,1
;   retractBetweenLayers,1
;   useRetractionMinTravel,0
;   retractionMinTravel,3
;   retractWhileWiping,0
;   onlyWipeOutlines,1
;   avoidCrossingOutline,0
;   maxMovementDetourFactor,3
;   toolChangeRetractionDistance,12
;   toolChangeExtraRestartDistance,-0.5
;   toolChangeRetractionSpeed,600
;   allowThinWallGapFill,1
;   thinWallAllowedOverlapPercentage,10
;   horizontalSizeCompensation,0
G90
M83
; **** Replicator 2 start.gcode ****
M73 P0 ; enable build progress
G162 X Y F3000 ; home XY maximum
G161 Z F1200 ; home Z minimum
G92 Z-5 ; set Z to -5
G1 Z0 ; move Z to 0
G161 Z F100 ; home Z slowly
M132 X Y Z A B ; recall home offsets
G1 X-145 Y-75 Z30 F9000 ; move to wait position off table
G130 X20 Y20 Z20 A20 B20 ; lower stepper Vrefs while heating
M127
M104 S215 T0
M133 T0 ; stabilize extruder temperature
G130 X127 Y127 Z40 A127 B127 ; default stepper Vrefs
G92 A0 ; zero extruder
G1 Z0.4 ; position nozzle
G1 E25 F300 ; purge nozzle
G1 X-140 Y-70 Z0.15 F1200 ; slow wipe
G1 X-135 Y-65 Z0.5 F1200 ; lift
G92 A0 ; zero extruder
M73 P1 ;@body (notify GPX body has started)
; **** end of start.gcode ****
G1 E-1.0000 F1200
G1 Z0.450 F1200
; layer 1, Z = 0.45
M135 T0
; tool H0.500 W0.400
; skirt
G1 X19.888 Y1.427 F9000
G1 E1.0000 F360
G1 X20.315 Y2.458 E0.0836 F2400
G1 X20.338 Y2.574 E0.0088
G1 X20.338 Y17.426 E1.1114
G1 X20.315 Y17.542 E0.0088
G1 X19.661 Y19.121 E0.1279
G1 X19.595 Y19.219 E0.0088
G1 X15.457 Y23.357 E0.4379
G1 X15.359 Y23.423 E0.0088
G1 X13.780 Y24.077 E0.1279
G1 X13.664 Y24.100 E0.0088
G1 X1.162 Y24.100 E0.9356
G1 X0.836 Y25.105 E0.0791
G1 X0.777 Y25.209 E0.0090
G1 X-0.357 Y26.522 E0.1298
G1 X-0.452 Y26.595 E0.0090
G1 X-5.775 Y29.234 E0.4446
G1 X-5.891 Y29.265 E0.0090
G1 X-7.621 Y29.372 E0.1298
G1 X-7.740 Y29.356 E0.0090
G1 X-15.117 Y26.777 E0.5848
G1 X-15.201 Y26.732 E0.0072
G1 X-16.299 Y25.887 E0.1036
G1 X-16.365 Y25.817 E0.0072
G1 X-18.997 Y21.932 E0.3512
G1 X-19.038 Y21.845 E0.0072
G1 X-19.415 Y20.513 E0.1036
G1 X-19.427 Y20.417 E0.0072
G1 X-19.403 Y19.870 E0.0410
G1 X-19.623 Y18.624 E0.0947
G1 X-19.623 Y18.521 E0.0077
G1 X-19.620 Y18.504 E0.0013
G1 X-19.647 Y18.337 E0.0126
G1 X-19.646 Y18.232 E0.0078
G1 X-19.589 Y17.934 E0.0228
G1 X-19.610 Y17.805 E0.0098
G1 X-19.610 Y17.705 E0.0075
G1 X-19.580 Y17.535 E0.0129
G1 X-19.596 Y17.446 E0.0067
G1 X-19.596 Y17.348 E0.0074
G1 X-19.578 Y17.236 E0.0084
G1 X-19.662 Y16.509 E0.0548
G1 X-19.657 Y16.407 E0.0077
G1 X-19.599 Y16.157 E0.0192
G1 X-19.622 Y15.966 E0.0144
G1 X-19.619 Y15.868 E0.0073
G1 X-19.545 Y15.511 E0.0273
G1 X-19.578 Y15.253 E0.0195
G1 X-19.576 Y15.162 E0.0068
G1 X-19.519 Y14.840 E0.0245
G1 X-19.523 Y14.810 E0.0023
G1 X-19.522 Y14.727 E0.0062
G1 X-19.417 Y14.015 E0.0538
G1 X-19.456 Y13.644 E0.0280
G1 X-19.455 Y13.577 E0.0050
G1 X-19.399 Y13.094 E0.0364
G1 X-19.359 Y12.658 E0.0328
G1 X-19.285 Y10.673 E0.1487
G1 X-19.281 Y9.665 E0.0754
G1 X-19.348 Y8.062 E0.1201
G1 X-19.401 Y7.429 E0.0475
G1 X-19.401 Y7.380 E0.0037
G1 X-19.357 Y6.835 E0.0409
G1 X-19.404 Y6.075 E0.0570
G1 X-19.427 Y5.917 E0.0119
G1 X-19.554 Y5.165 E0.0571
G1 X-19.556 Y5.078 E0.0065
G1 X-19.547 Y5.004 E0.0055
G1 X-19.576 Y4.838 E0.0126
G1 X-19.578 Y4.747 E0.0068
G1 X-19.545 Y4.489 E0.0195
G1 X-19.618 Y4.133 E0.0272
G1 X-19.622 Y4.035 E0.0073
G1 X-19.615 Y3.973 E0.0047
G1 X-20.997 Y1.932 E0.1844
G1 X-21.038 Y1.845 E0.0072
G1 X-21.415 Y0.513 E0.1036
G1 X-21.427 Y0.418 E0.0072
G1 X-21.403 Y-0.130 E0.0410
G1 X-21.623 Y-1.377 E0.0948
G1 X-21.623 Y-1.480 E0.0077
G1 X-21.620 Y-1.497 E0.0013
G1 X-21.647 Y-1.663 E0.0126
G1 X-21.646 Y-1.768 E0.0078
G1 X-21.612 Y-1.948 E0.0138
G1 X-21.612 Y-1.989 E0.0030
G1 X-21.594 Y-2.096 E0.0081
G1 X-21.610 Y-2.195 E0.0076
G1 X-21.610 Y-2.295 E0.0075
G1 X-21.580 Y-2.465 E0.0129
G1 X-21.595 Y-2.553 E0.0067
G1 X-21.596 Y-2.652 E0.0074
G1 X-21.578 Y-2.763 E0.0084
G1 X-21.662 Y-3.490 E0.0548
G1 X-21.657 Y-3.593 E0.0077
G1 X-21.599 Y-3.843 E0.0193
G1 X-21.622 Y-4.035 E0.0145
G1 X-21.618 Y-4.133 E0.0073
G1 X-21.545 Y-4.490 E0.0273
G1 X-21.578 Y-4.747 E0.0194
G1 X-21.576 Y-4.838 E0.0068
G1 X-21.519 Y-5.160 E0.0245
G1 X-21.523 Y-5.190 E0.0023
G1 X-21.522 Y-5.273 E0.0062
G1 X-21.417 Y-5.985 E0.0538
G1 X-21.456 Y-6.356 E0.0280
G1 X-21.455 Y-6.422 E0.0050
G1 X-21.399 Y-6.903 E0.0362
G1 X-21.359 Y-7.342 E0.0330
G1 X-21.285 Y-9.327 E0.1487
G1 X-21.281 Y-10.335 E0.0754
G1 X-21.362 Y-12.272 E0.1451
G1 X-21.361 Y-12.308 E0.0027
G1 X-21.388 Y-12.743 E0.0326
G1 X-21.387 Y-12.790 E0.0036
G1 X-21.354 Y-13.125 E0.0251
G1 X-21.404 Y-13.925 E0.0600
G1 X-21.522 Y-14.727 E0.0607
G1 X-21.523 Y-14.810 E0.0062
G1 X-21.519 Y-14.840 E0.0023
G1 X-21.576 Y-15.162 E0.0245
G1 X-21.578 Y-15.253 E0.0068
G1 X-21.545 Y-15.510 E0.0194
G1 X-21.618 Y-15.868 E0.0273
G1 X-21.622 Y-15.965 E0.0073
G1 X-21.599 Y-16.157 E0.0145
G1 X-21.657 Y-16.407 E0.0193
G1 X-21.662 Y-16.510 E0.0077
G1 X-21.578 Y-17.237 E0.0548
G1 X-21.596 Y-17.349 E0.0084
G1 X-21.595 Y-17.447 E0.0074
G1 X-21.580 Y-17.536 E0.0067
G1 X-21.610 Y-17.706 E0.0129
G1 X-21.610 Y-17.805 E0.0075
G1 X-21.594 Y-17.904 E0.0075
G1 X-21.612 Y-18.011 E0.0081
G1 X-21.612 Y-18.053 E0.0031
G1 X-21.646 Y-18.233 E0.0137
G1 X-21.647 Y-18.337 E0.0078
G1 X-21.620 Y-18.503 E0.0126
G1 X-21.623 Y-18.520 E0.0013
G1 X-21.623 Y-18.624 E0.0077
G1 X-21.412 Y-19.820 E0.0909
G1 X-21.438 Y-20.362 E0.0407
G1 X-21.427 Y-20.458 E0.0072
G1 X-21.055 Y-21.794 E0.1038
G1 X-21.015 Y-21.881 E0.0072
G1 X-18.396 Y-25.781 E0.3516
G1 X-18.330 Y-25.852 E0.0072
G1 X-17.235 Y-26.701 E0.1038
G1 X-17.150 Y-26.747 E0.0072
G1 X-9.769 Y-29.357 E0.5859
G1 X-9.650 Y-29.374 E0.0090
G1 X-7.915 Y-29.270 E0.1301
G1 X-7.799 Y-29.240 E0.0090
G1 X-2.458 Y-26.604 E0.4457
G1 X-2.363 Y-26.531 E0.0090
G1 X-1.558 Y-25.600 E0.0921
G1 X14.664 Y-25.600 E1.2139
G1 X14.780 Y-25.577 E0.0088
G1 X16.359 Y-24.923 E0.1279
G1 X16.457 Y-24.857 E0.0088
G1 X20.595 Y-20.719 E0.4379
G1 X20.661 Y-20.621 E0.0088
G1 X21.315 Y-19.042 E0.1279
G1 X21.338 Y-18.926 E0.0088
G1 X21.338 Y-1.074 E1.3359
G1 X21.315 Y-0.958 E0.0088
G1 X20.661 Y0.621 E0.1279
G1 X20.595 Y0.719 E0.0088
G1 X19.888 Y1.427 E0.0749
G1 X19.416 Y1.333 F9000
G1 X19.930 Y2.575 E0.1006 F2400
G1 X19.938 Y2.614 E0.0029
G1 X19.938 Y17.386 E1.1055
G1 X19.930 Y17.425 E0.0029
G1 X19.306 Y18.932 E0.1220
G1 X19.284 Y18.964 E0.0029
G1 X15.202 Y23.046 E0.4320
G1 X15.170 Y23.068 E0.0029
G1 X13.663 Y23.692 E0.1220
G1 X13.624 Y23.700 E0.0029
G1 X0.871 Y23.700 E0.9544
G1 X0.467 Y24.943 E0.0978
G1 X0.448 Y24.978 E0.0030
G1 X-0.633 Y26.230 E0.1238
G1 X-0.665 Y26.255 E0.0030
G1 X-5.917 Y28.858 E0.4386
G1 X-5.955 Y28.868 E0.0030
G1 X-7.606 Y28.970 E0.1238
G1 X-7.646 Y28.965 E0.0030
G1 X-14.954 Y26.410 E0.5794
G1 X-14.983 Y26.395 E0.0024
G1 X-16.030 Y25.590 E0.0988
G1 X-16.051 Y25.566 E0.0024
G1 X-18.648 Y21.734 E0.3464
G1 X-18.662 Y21.705 E0.0024
G1 X-19.022 Y20.435 E0.0988
G1 X-19.026 Y20.403 E0.0024
G1 X-19.001 Y19.844 E0.0419
G1 X-19.223 Y18.589 E0.0954
G1 X-19.223 Y18.554 E0.0026
G1 X-19.214 Y18.505 E0.0037
G1 X-19.247 Y18.307 E0.0150
G1 X-19.246 Y18.272 E0.0026
G1 X-19.183 Y17.939 E0.0254
G1 X-19.210 Y17.774 E0.0125
G1 X-19.210 Y17.740 E0.0025
G1 X-19.174 Y17.535 E0.0156
G1 X-19.196 Y17.411 E0.0094
G1 X-19.196 Y17.378 E0.0025
G1 X-19.175 Y17.245 E0.0101
G1 X-19.261 Y16.497 E0.0563
G1 X-19.259 Y16.463 E0.0026
G1 X-19.194 Y16.178 E0.0219
G1 X-19.222 Y15.949 E0.0172
G1 X-19.220 Y15.917 E0.0024
G1 X-19.140 Y15.526 E0.0299
G1 X-19.178 Y15.232 E0.0222
G1 X-19.177 Y15.202 E0.0023
G1 X-19.123 Y14.898 E0.0231
G1 X-19.115 Y14.845 E0.0041
G1 X-19.123 Y14.786 E0.0044
G1 X-19.122 Y14.758 E0.0021
G1 X-19.014 Y14.024 E0.0556
G1 X-19.056 Y13.624 E0.0301
G1 X-19.056 Y13.602 E0.0017
G1 X-19.001 Y13.136 E0.0351
G1 X-18.960 Y12.684 E0.0340
G1 X-18.885 Y10.681 E0.1500
G1 X-18.881 Y9.658 E0.0766
G1 X-18.948 Y8.036 E0.1214
G1 X-19.001 Y7.412 E0.0469
G1 X-19.001 Y7.396 E0.0012
G1 X-18.956 Y6.839 E0.0418
G1 X-19.005 Y6.034 E0.0604
G1 X-19.032 Y5.855 E0.0135
G1 X-19.155 Y5.127 E0.0552
G1 X-19.155 Y5.098 E0.0022
G1 X-19.142 Y4.994 E0.0079
G1 X-19.177 Y4.798 E0.0149
G1 X-19.178 Y4.768 E0.0023
G1 X-19.140 Y4.474 E0.0222
G1 X-19.220 Y4.084 E0.0298
G1 X-19.221 Y4.052 E0.0024
G1 X-19.199 Y3.872 E0.0135
G1 X-20.648 Y1.735 E0.1933
G1 X-20.662 Y1.706 E0.0024
G1 X-21.022 Y0.435 E0.0988
G1 X-21.026 Y0.403 E0.0024
G1 X-21.001 Y-0.156 E0.0419
G1 X-21.223 Y-1.412 E0.0955
G1 X-21.223 Y-1.447 E0.0026
G1 X-21.215 Y-1.495 E0.0037
G1 X-21.247 Y-1.693 E0.0150
G1 X-21.246 Y-1.728 E0.0026
G1 X-21.210 Y-1.917 E0.0144
G1 X-21.212 Y-1.923 E0.0005
G1 X-21.212 Y-1.957 E0.0025
G1 X-21.189 Y-2.095 E0.0105
G1 X-21.210 Y-2.226 E0.0100
G1 X-21.210 Y-2.260 E0.0025
G1 X-21.174 Y-2.465 E0.0156
G1 X-21.196 Y-2.588 E0.0094
G1 X-21.196 Y-2.621 E0.0025
G1 X-21.175 Y-2.754 E0.0101
G1 X-21.261 Y-3.502 E0.0563
G1 X-21.259 Y-3.536 E0.0026
G1 X-21.193 Y-3.822 E0.0220
G1 X-21.221 Y-4.052 E0.0173
G1 X-21.220 Y-4.084 E0.0024
G1 X-21.140 Y-4.474 E0.0298
G1 X-21.178 Y-4.767 E0.0221
G1 X-21.177 Y-4.798 E0.0023
G1 X-21.123 Y-5.100 E0.0229
G1 X-21.115 Y-5.155 E0.0042
G1 X-21.123 Y-5.214 E0.0044
G1 X-21.122 Y-5.242 E0.0021
G1 X-21.014 Y-5.976 E0.0555
G1 X-21.056 Y-6.376 E0.0301
G1 X-21.056 Y-6.398 E0.0017
G1 X-21.001 Y-6.862 E0.0350
G1 X-20.960 Y-7.316 E0.0341
G1 X-20.885 Y-9.319 E0.1500
G1 X-20.881 Y-10.342 E0.0766
G1 X-20.962 Y-12.276 E0.1449
G1 X-20.961 Y-12.289 E0.0009
G1 X-20.960 Y-12.305 E0.0012
G1 X-20.988 Y-12.752 E0.0335
G1 X-20.987 Y-12.767 E0.0012
G1 X-20.953 Y-13.118 E0.0263
G1 X-21.005 Y-13.966 E0.0636
G1 X-21.122 Y-14.758 E0.0599
G1 X-21.123 Y-14.786 E0.0021
G1 X-21.115 Y-14.845 E0.0044
G1 X-21.123 Y-14.900 E0.0042
G1 X-21.177 Y-15.202 E0.0229
G1 X-21.178 Y-15.233 E0.0023
G1 X-21.140 Y-15.526 E0.0221
G1 X-21.220 Y-15.916 E0.0298
G1 X-21.221 Y-15.948 E0.0024
G1 X-21.193 Y-16.178 E0.0173
G1 X-21.259 Y-16.464 E0.0220
G1 X-21.261 Y-16.498 E0.0026
G1 X-21.175 Y-17.246 E0.0563
G1 X-21.196 Y-17.379 E0.0101
G1 X-21.196 Y-17.412 E0.0025
G1 X-21.174 Y-17.536 E0.0094
G1 X-21.210 Y-17.741 E0.0156
G1 X-21.210 Y-17.774 E0.0025
G1 X-21.189 Y-17.905 E0.0099
G1 X-21.212 Y-18.043 E0.0105
G1 X-21.212 Y-18.077 E0.0025
G1 X-21.210 Y-18.083 E0.0005
G1 X-21.246 Y-18.273 E0.0144
G1 X-21.247 Y-18.308 E0.0026
G1 X-21.215 Y-18.505 E0.0149
G1 X-21.223 Y-18.554 E0.0037
G1 X-21.223 Y-18.588 E0.0026
G1 X-21.010 Y-19.794 E0.0917
G1 X-21.037 Y-20.350 E0.0416
G1 X-21.033 Y-20.381 E0.0024
G1 X-20.679 Y-21.655 E0.0990
G1 X-20.665 Y-21.684 E0.0024
G1 X-18.082 Y-25.532 E0.3468
G1 X-18.060 Y-25.555 E0.0024
G1 X-17.015 Y-26.366 E0.0990
G1 X-16.987 Y-26.381 E0.0024
