; G-Code generated by Simplify3D(R) Version 3.0.1
; Sep 25, 2015 at 1:45:10 PM
; Settings Summary
;   processName,Rob Replicator2 low Infill High Quality
;   applyToModels,six_hole_tube_mount,FirgMounts
;   profileName,MakerBot Replicator 2 (modified)
;   profileVersion,2015-05-01 08:00:00
;   baseProfile,
;   printMaterial,PLA
;   printQuality,Fast
;   printExtruders,
;   extruderName,Primary Extruder
;   extruderToolheadNumber,0
;   extruderDiameter,0.4
;   extruderAutoWidth,0
;   extruderWidth,0.4
;   extrusionMultiplier,0.9
;   extruderUseRetract,1
;   extruderRetractionDistance,1
;   extruderExtraRestartDistance,0
;   extruderRetractionZLift,0
;   extruderRetractionSpeed,1200
;   extruderUseCoasting,0
;   extruderCoastingDistance,0.2
;   extruderUseWipe,0
;   extruderWipeDistance,5
;   primaryExtruder,0
;   layerHeight,0.3
;   topSolidLayers,3
;   bottomSolidLayers,3
;   perimeterOutlines,2
;   printPerimetersInsideOut,1
;   startPointOption,2
;   startPointOriginX,0
;   startPointOriginY,0
;   startPointOriginZ,300
;   sequentialIslands,0
;   spiralVaseMode,0
;   firstLayerHeightPercentage,90
;   firstLayerWidthPercentage,100
;   firstLayerUnderspeed,0.5
;   useRaft,1
;   raftExtruder,0
;   raftLayers,3
;   raftOffset,3
;   raftSeparationDistance,0.14
;   raftInfill,85
;   disableRaftBaseLayers,0
;   useSkirt,1
;   skirtExtruder,0
;   skirtLayers,1
;   skirtOutlines,2
;   skirtOffset,4
;   usePrimePillar,0
;   primePillarExtruder,999
;   primePillarWidth,12
;   primePillarLocation,7
;   primePillarSpeedMultiplier,1
;   useOozeShield,0
;   oozeShieldExtruder,999
;   oozeShieldOffset,2
;   oozeShieldOutlines,1
;   oozeShieldSidewallShape,1
;   oozeShieldSidewallAngle,30
;   oozeShieldSpeedMultiplier,1
;   infillExtruder,0
;   internalInfillPattern,Rectilinear
;   externalInfillPattern,Rectilinear
;   infillPercentage,15
;   outlineOverlapPercentage,20
;   infillExtrusionWidthPercentage,100
;   minInfillLength,5
;   infillLayerInterval,1
;   infillAngles,45,-45
;   overlapInfillAngles,0
;   generateSupport,1
;   supportExtruder,0
;   supportInfillPercentage,25
;   supportExtraInflation,0
;   denseSupportLayers,0
;   denseSupportInfillPercentage,70
;   supportLayerInterval,1
;   supportHorizontalPartOffset,0.3
;   supportUpperSeparationLayers,1
;   supportLowerSeparationLayers,1
;   supportType,0
;   supportGridSpacing,4
;   maxOverhangAngle,45
;   supportAngles,0
;   temperatureName,Primary Extruder
;   temperatureNumber,0
;   temperatureSetpointCount,1
;   temperatureSetpointLayers,1
;   temperatureSetpointTemperatures,215
;   temperatureStabilizeAtStartup,0
;   temperatureHeatedBed,0
;   temperatureRelayBetweenLayers,0
;   temperatureRelayBetweenLoops,0
;   fanLayers,1,2
;   fanSpeeds,0,100
;   blipFanToFullPower,0
;   adjustSpeedForCooling,1
;   minSpeedLayerTime,15
;   minCoolingSpeedSlowdown,20
;   increaseFanForCooling,0
;   minFanLayerTime,45
;   maxCoolingFanSpeed,100
;   increaseFanForBridging,0
;   bridgingFanSpeed,100
;   use5D,1
;   relativeEdistances,1
;   allowEaxisZeroing,0
;   independentExtruderAxes,1
;   includeM10123,0
;   stickySupport,1
;   applyToolheadOffsets,0
;   gcodeXoffset,0
;   gcodeYoffset,0
;   gcodeZoffset,0
;   overrideMachineDefinition,1
;   machineTypeOverride,0
;   strokeXoverride,280
;   strokeYoverride,150
;   strokeZoverride,150
;   originOffsetXoverride,140
;   originOffsetYoverride,75
;   originOffsetZoverride,0
;   homeXdirOverride,1
;   homeYdirOverride,1
;   homeZdirOverride,-1
;   flipXoverride,1
;   flipYoverride,-1
;   flipZoverride,1
;   toolheadOffsets,0,0|0,0|0,0|0,0|0,0|0,0
;   overrideFirmwareConfiguration,1
;   firmwareTypeOverride,MakerBot/Sailfish Firmware
;   GPXconfigOverride,r2
;   baudRateOverride,115200
;   overridePrinterModels,1
;   printerModelsOverride,MakerBot_Replicator2.stl
;   startingGcode,; **** Replicator 2 start.gcode ****,M73 P0 ; enable build progress,G162 X Y F3000 ; home XY maximum,G161 Z F1200 ; home Z minimum,G92 Z-5 ; set Z to -5,G1 Z0 ; move Z to 0,G161 Z F100 ; home Z slowly,M132 X Y Z A B ; recall home offsets,G1 X-145 Y-75 Z30 F9000 ; move to wait position off table,G130 X20 Y20 Z20 A20 B20 ; lower stepper Vrefs while heating,M126 S[fan_speed_pwm],M104 S[extruder0_temperature] T0,M133 T0 ; stabilize extruder temperature,G130 X127 Y127 Z40 A127 B127 ; default stepper Vrefs,G92 A0 ; zero extruder,G1 Z0.4 ; position nozzle,G1 E25 F300 ; purge nozzle,G1 X-140 Y-70 Z0.15 F1200 ; slow wipe,G1 X-135 Y-65 Z0.5 F1200 ; lift,G92 A0 ; zero extruder,M73 P1 ;@body (notify GPX body has started),; **** end of start.gcode ****
;   layerChangeGcode,
;   retractionGcode,
;   toolChangeGcode,
;   endingGcode,; **** Replicator 2 end.gcode ****,M73 P100 ; end build progress,G1 Z155 F1000 ; send Z axis to bottom of machine,M104 S0 T0 ; cool down extruder,M127 ; stop blower fan,G162 X Y F3000 ; home XY maximum,M18 ; disable stepper,M72 P1 ; play Ta-Da song,; **** end of end.gcode ****
;   createX3G,1
;   celebration,0
;   celebrationSong,Random Song
;   createMB5G,0
;   postProcessing,
;   defaultSpeed,4800
;   outlineUnderspeed,0.5
;   solidInfillUnderspeed,0.8
;   supportUnderspeed,0.8
;   rapidXYspeed,9000
;   rapidZspeed,1200
;   minBridgingArea,50
;   bridgingExtraInflation,0
;   bridgingExtrusionMultiplier,1
;   bridgingSpeedMultiplier,0.8
;   filamentDiameter,1.75
;   filamentPricePerKg,46
;   filamentDensity,1.25
;   useMinPrintHeight,0
;   minPrintHeight,0
;   useMaxPrintHeight,0
;   maxPrintHeight,0
;   useDiaphragm,0
;   diaphragmLayerInterval,20
;   robustSlicing,1
;   mergeAllIntoSolid,0
;   onlyRetractWhenCrossingOutline,1
;   retractBetweenLayers,1
;   useRetractionMinTravel,0
;   retractionMinTravel,3
;   retractWhileWiping,0
;   onlyWipeOutlines,1
;   avoidCrossingOutline,0
;   maxMovementDetourFactor,3
;   toolChangeRetractionDistance,12
;   toolChangeExtraRestartDistance,-0.5
;   toolChangeRetractionSpeed,600
;   allowThinWallGapFill,1
;   thinWallAllowedOverlapPercentage,10
;   horizontalSizeCompensation,0
G90
M83
; **** Replicator 2 start.gcode ****
M73 P0 ; enable build progress
G162 X Y F3000 ; home XY maximum
G161 Z F1200 ; home Z minimum
G92 Z-5 ; set Z to -5
G1 Z0 ; move Z to 0
G161 Z F100 ; home Z slowly
M132 X Y Z A B ; recall home offsets
G1 X-145 Y-75 Z30 F9000 ; move to wait position off table
G130 X20 Y20 Z20 A20 B20 ; lower stepper Vrefs while heating
M127
M104 S215 T0
M133 T0 ; stabilize extruder temperature
G130 X127 Y127 Z40 A127 B127 ; default stepper Vrefs
G92 A0 ; zero extruder
G1 Z0.4 ; position nozzle
G1 E25 F300 ; purge nozzle
G1 X-140 Y-70 Z0.15 F1200 ; slow wipe
G1 X-135 Y-65 Z0.5 F1200 ; lift
G92 A0 ; zero extruder
M73 P1 ;@body (notify GPX body has started)
; **** end of start.gcode ****
G1 E-1.0000 F1200
G1 Z0.450 F1200
; layer 1, Z = 0.45
M135 T0
; tool H0.500 W0.400
; skirt
G1 X4.741 Y-0.586 F9000
G1 E1.0000 F360
G1 X4.742 Y-0.577 E0.0007 F2400
G1 X4.754 Y-0.447 E0.0097
G1 X4.754 Y-0.438 E0.0007
G1 X4.846 Y1.064 E0.1126
G1 X4.846 Y1.073 E0.0007
G1 X4.850 Y1.203 E0.0098
G1 X4.850 Y1.212 E0.0007
G1 X4.850 Y1.646 E0.0325
G1 X4.850 Y1.655 E0.0007
G1 X4.846 Y1.785 E0.0098
G1 X4.846 Y1.794 E0.0007
G1 X4.755 Y3.292 E0.1123
G1 X4.755 Y3.301 E0.0007
G1 X4.743 Y3.430 E0.0097
G1 X4.742 Y3.439 E0.0007
G1 X4.690 Y3.868 E0.0323
G1 X4.689 Y3.877 E0.0007
G1 X4.669 Y4.006 E0.0097
G1 X4.668 Y4.015 E0.0007
G1 X4.397 Y5.489 E0.1122
G1 X4.396 Y5.498 E0.0007
G1 X4.368 Y5.625 E0.0097
G1 X4.366 Y5.634 E0.0007
G1 X4.295 Y5.924 E0.0223
G1 X25.370 Y5.924 E1.5771
G1 X25.486 Y5.947 E0.0088
G1 X27.065 Y6.601 E0.1279
G1 X27.163 Y6.666 E0.0088
G1 X31.301 Y10.804 E0.4379
G1 X31.367 Y10.902 E0.0088
G1 X32.021 Y12.482 E0.1279
G1 X32.044 Y12.598 E0.0088
G1 X32.044 Y30.114 E1.3108
G1 X32.021 Y30.230 E0.0088
G1 X31.367 Y31.809 E0.1279
G1 X31.301 Y31.908 E0.0088
G1 X27.163 Y36.045 E0.4379
G1 X27.065 Y36.111 E0.0088
G1 X25.486 Y36.765 E0.1279
G1 X25.370 Y36.788 E0.0088
G1 X1.343 Y36.788 E1.7981
G1 X0.827 Y37.002 E0.0417
G1 X0.711 Y37.025 E0.0088
G1 X-25.370 Y37.025 E1.9518
G1 X-25.486 Y37.002 E0.0088
G1 X-27.065 Y36.347 E0.1279
G1 X-27.163 Y36.282 E0.0088
G1 X-31.301 Y32.144 E0.4379
G1 X-31.367 Y32.046 E0.0088
G1 X-32.021 Y30.466 E0.1279
G1 X-32.044 Y30.351 E0.0088
G1 X-32.044 Y12.361 E1.3462
G1 X-32.021 Y12.245 E0.0088
G1 X-31.367 Y10.666 E0.1279
G1 X-31.301 Y10.568 E0.0088
G1 X-30.180 Y9.447 E0.1186
G1 X-30.685 Y8.330 E0.0918
G1 X-30.689 Y8.321 E0.0007
G1 X-30.739 Y8.201 E0.0098
G1 X-30.742 Y8.193 E0.0007
G1 X-30.897 Y7.787 E0.0324
G1 X-30.900 Y7.779 E0.0007
G1 X-30.942 Y7.656 E0.0098
G1 X-30.945 Y7.647 E0.0007
G1 X-31.394 Y6.211 E0.1126
G1 X-31.397 Y6.202 E0.0007
G1 X-31.432 Y6.077 E0.0098
G1 X-31.434 Y6.068 E0.0007
G1 X-31.539 Y5.647 E0.0325
G1 X-31.541 Y5.638 E0.0007
G1 X-31.568 Y5.511 E0.0098
G1 X-31.570 Y5.502 E0.0007
G1 X-31.842 Y4.024 E0.1124
G1 X-31.843 Y4.015 E0.0007
G1 X-31.863 Y3.887 E0.0097
G1 X-31.864 Y3.878 E0.0007
G1 X-31.916 Y3.448 E0.0324
G1 X-31.917 Y3.439 E0.0007
G1 X-31.929 Y3.310 E0.0097
G1 X-31.930 Y3.301 E0.0007
G1 X-32.021 Y1.799 E0.1126
G1 X-32.022 Y1.790 E0.0007
G1 X-32.026 Y1.659 E0.0098
G1 X-32.026 Y1.650 E0.0007
G1 X-32.026 Y1.216 E0.0325
G1 X-32.026 Y1.207 E0.0007
G1 X-32.022 Y1.077 E0.0098
G1 X-32.022 Y1.068 E0.0007
G1 X-31.931 Y-0.429 E0.1123
G1 X-31.930 Y-0.438 E0.0007
G1 X-31.919 Y-0.568 E0.0097
G1 X-31.918 Y-0.577 E0.0007
G1 X-31.866 Y-1.006 E0.0323
G1 X-31.864 Y-1.015 E0.0007
G1 X-31.845 Y-1.143 E0.0097
G1 X-31.843 Y-1.152 E0.0007
G1 X-31.573 Y-2.627 E0.1122
G1 X-31.571 Y-2.636 E0.0007
G1 X-31.544 Y-2.763 E0.0097
G1 X-31.542 Y-2.772 E0.0007
G1 X-31.439 Y-3.191 E0.0323
G1 X-31.436 Y-3.200 E0.0007
G1 X-31.401 Y-3.325 E0.0097
G1 X-31.399 Y-3.334 E0.0007
G1 X-30.953 Y-4.765 E0.1122
G1 X-30.950 Y-4.774 E0.0007
G1 X-30.908 Y-4.897 E0.0097
G1 X-30.904 Y-4.905 E0.0007
G1 X-30.751 Y-5.309 E0.0323
G1 X-30.748 Y-5.317 E0.0007
G1 X-30.698 Y-5.437 E0.0097
G1 X-30.695 Y-5.446 E0.0007
G1 X-30.079 Y-6.813 E0.1122
G1 X-30.075 Y-6.821 E0.0007
G1 X-30.019 Y-6.938 E0.0097
G1 X-30.015 Y-6.946 E0.0007
G1 X-29.814 Y-7.328 E0.0323
G1 X-29.809 Y-7.336 E0.0007
G1 X-29.746 Y-7.450 E0.0097
G1 X-29.741 Y-7.457 E0.0007
G1 X-29.050 Y-8.601 E0.1000
G1 X-29.712 Y-9.695 E0.0957
G1 X-29.716 Y-9.703 E0.0007
G1 X-29.780 Y-9.816 E0.0097
G1 X-29.784 Y-9.824 E0.0007
G1 X-29.985 Y-10.207 E0.0323
G1 X-29.989 Y-10.215 E0.0007
G1 X-30.046 Y-10.332 E0.0097
G1 X-30.050 Y-10.340 E0.0007
G1 X-30.664 Y-11.703 E0.1119
G1 X-30.667 Y-11.712 E0.0007
G1 X-30.717 Y-11.832 E0.0097
G1 X-30.720 Y-11.840 E0.0007
G1 X-30.874 Y-12.244 E0.0323
G1 X-30.877 Y-12.253 E0.0007
G1 X-30.919 Y-12.375 E0.0097
G1 X-30.922 Y-12.384 E0.0007
G1 X-31.367 Y-13.812 E0.1119
G1 X-31.369 Y-13.820 E0.0007
G1 X-31.404 Y-13.946 E0.0097
G1 X-31.406 Y-13.954 E0.0007
G1 X-31.510 Y-14.374 E0.0323
G1 X-31.512 Y-14.383 E0.0007
G1 X-31.539 Y-14.510 E0.0097
G1 X-31.541 Y-14.519 E0.0007
G1 X-31.810 Y-15.989 E0.1119
G1 X-31.812 Y-15.998 E0.0007
G1 X-31.832 Y-16.127 E0.0097
G1 X-31.833 Y-16.136 E0.0007
G1 X-31.885 Y-16.565 E0.0323
G1 X-31.886 Y-16.574 E0.0007
G1 X-31.898 Y-16.703 E0.0097
G1 X-31.898 Y-16.712 E0.0007
G1 X-31.989 Y-18.205 E0.1119
G1 X-31.989 Y-18.214 E0.0007
G1 X-31.993 Y-18.344 E0.0097
G1 X-31.993 Y-18.353 E0.0007
G1 X-31.993 Y-18.785 E0.0323
G1 X-31.993 Y-18.794 E0.0007
G1 X-31.989 Y-18.924 E0.0097
G1 X-31.989 Y-18.933 E0.0007
G1 X-31.898 Y-20.426 E0.1119
G1 X-31.898 Y-20.435 E0.0007
G1 X-31.886 Y-20.564 E0.0097
G1 X-31.885 Y-20.573 E0.0007
G1 X-31.833 Y-21.002 E0.0323
G1 X-31.832 Y-21.011 E0.0007
G1 X-31.812 Y-21.139 E0.0097
G1 X-31.810 Y-21.148 E0.0007
G1 X-31.541 Y-22.619 E0.1119
G1 X-31.539 Y-22.628 E0.0007
G1 X-31.512 Y-22.755 E0.0097
G1 X-31.510 Y-22.764 E0.0007
G1 X-31.406 Y-23.183 E0.0323
G1 X-31.404 Y-23.192 E0.0007
G1 X-31.369 Y-23.317 E0.0097
G1 X-31.367 Y-23.326 E0.0007
G1 X-30.922 Y-24.754 E0.1119
G1 X-30.919 Y-24.762 E0.0007
G1 X-30.877 Y-24.885 E0.0097
G1 X-30.873 Y-24.894 E0.0007
G1 X-30.720 Y-25.298 E0.0324
G1 X-30.717 Y-25.306 E0.0007
G1 X-30.667 Y-25.426 E0.0097
G1 X-30.663 Y-25.435 E0.0007
G1 X-30.049 Y-26.799 E0.1120
G1 X-30.045 Y-26.807 E0.0007
G1 X-29.989 Y-26.924 E0.0097
G1 X-29.984 Y-26.932 E0.0007
G1 X-29.784 Y-27.314 E0.0323
G1 X-29.779 Y-27.322 E0.0007
G1 X-29.716 Y-27.435 E0.0097
G1 X-29.711 Y-27.443 E0.0007
G1 X-28.938 Y-28.723 E0.1119
G1 X-28.933 Y-28.730 E0.0007
G1 X-28.862 Y-28.840 E0.0098
G1 X-28.857 Y-28.847 E0.0007
G1 X-28.610 Y-29.204 E0.0325
G1 X-28.605 Y-29.212 E0.0007
G1 X-28.528 Y-29.317 E0.0098
G1 X-28.522 Y-29.324 E0.0007
G1 X-27.597 Y-30.504 E0.1122
G1 X-27.591 Y-30.511 E0.0007
G1 X-27.508 Y-30.610 E0.0097
G1 X-27.503 Y-30.617 E0.0007
G1 X-27.217 Y-30.939 E0.0322
G1 X-27.211 Y-30.946 E0.0007
G1 X-27.122 Y-31.040 E0.0097
G1 X-27.116 Y-31.047 E0.0007
G1 X-26.062 Y-32.101 E0.1115
G1 X-26.056 Y-32.107 E0.0007
G1 X-25.961 Y-32.196 E0.0097
G1 X-25.954 Y-32.202 E0.0007
G1 X-25.631 Y-32.488 E0.0323
G1 X-25.624 Y-32.494 E0.0007
G1 X-25.524 Y-32.578 E0.0097
G1 X-25.517 Y-32.583 E0.0007
G1 X-24.340 Y-33.505 E0.1119
G1 X-24.333 Y-33.511 E0.0007
G1 X-24.228 Y-33.588 E0.0097
G1 X-24.221 Y-33.593 E0.0007
G1 X-23.865 Y-33.839 E0.0323
G1 X-23.858 Y-33.844 E0.0007
G1 X-23.749 Y-33.914 E0.0097
G1 X-23.741 Y-33.919 E0.0007
G1 X-22.461 Y-34.693 E0.1119
G1 X-22.454 Y-34.697 E0.0007
G1 X-22.340 Y-34.761 E0.0097
G1 X-22.332 Y-34.765 E0.0007
G1 X-21.950 Y-34.966 E0.0323
G1 X-21.942 Y-34.970 E0.0007
G1 X-21.825 Y-35.027 E0.0097
G1 X-21.817 Y-35.031 E0.0007
G1 X-20.453 Y-35.645 E0.1119
G1 X-20.445 Y-35.648 E0.0007
G1 X-20.325 Y-35.698 E0.0097
G1 X-20.316 Y-35.701 E0.0007
G1 X-19.912 Y-35.855 E0.0323
G1 X-19.904 Y-35.858 E0.0007
G1 X-19.781 Y-35.900 E0.0097
G1 X-19.772 Y-35.903 E0.0007
G1 X-18.345 Y-36.348 E0.1119
G1 X-18.336 Y-36.350 E0.0007
G1 X-18.211 Y-36.385 E0.0097
G1 X-18.202 Y-36.387 E0.0007
G1 X-17.783 Y-36.491 E0.0323
G1 X-17.774 Y-36.493 E0.0007
G1 X-17.647 Y-36.520 E0.0097
G1 X-17.638 Y-36.522 E0.0007
G1 X-16.167 Y-36.791 E0.1119
G1 X-16.158 Y-36.793 E0.0007
G1 X-16.030 Y-36.812 E0.0097
G1 X-16.021 Y-36.814 E0.0007
G1 X-15.592 Y-36.866 E0.0323
G1 X-15.583 Y-36.867 E0.0007
G1 X-15.454 Y-36.878 E0.0097
G1 X-15.445 Y-36.879 E0.0007
G1 X-13.952 Y-36.969 E0.1119
G1 X-13.943 Y-36.970 E0.0007
G1 X-13.813 Y-36.974 E0.0097
G1 X-13.804 Y-36.974 E0.0007
G1 X-13.372 Y-36.974 E0.0323
G1 X-13.363 Y-36.974 E0.0007
G1 X-13.233 Y-36.970 E0.0097
G1 X-13.224 Y-36.969 E0.0007
G1 X-11.731 Y-36.879 E0.1119
G1 X-11.722 Y-36.878 E0.0007
G1 X-11.593 Y-36.867 E0.0097
G1 X-11.584 Y-36.866 E0.0007
G1 X-11.155 Y-36.814 E0.0323
G1 X-11.146 Y-36.812 E0.0007
G1 X-11.017 Y-36.793 E0.0097
G1 X-11.009 Y-36.791 E0.0007
G1 X-9.538 Y-36.522 E0.1119
G1 X-9.529 Y-36.520 E0.0007
G1 X-9.402 Y-36.493 E0.0097
G1 X-9.393 Y-36.491 E0.0007
G1 X-8.973 Y-36.387 E0.0323
G1 X-8.965 Y-36.385 E0.0007
G1 X-8.840 Y-36.350 E0.0097
G1 X-8.831 Y-36.348 E0.0007
G1 X-7.403 Y-35.903 E0.1119
G1 X-7.394 Y-35.900 E0.0007
G1 X-7.272 Y-35.857 E0.0097
G1 X-7.263 Y-35.854 E0.0007
G1 X-6.859 Y-35.701 E0.0324
G1 X-6.850 Y-35.698 E0.0007
G1 X-6.730 Y-35.648 E0.0097
G1 X-6.722 Y-35.644 E0.0007
G1 X-5.358 Y-35.030 E0.1120
G1 X-5.349 Y-35.026 E0.0007
G1 X-5.233 Y-34.969 E0.0097
G1 X-5.225 Y-34.965 E0.0007
G1 X-4.842 Y-34.765 E0.0323
G1 X-4.834 Y-34.760 E0.0007
G1 X-4.721 Y-34.697 E0.0097
G1 X-4.714 Y-34.692 E0.0007
G1 X-3.434 Y-33.919 E0.1119
G1 X-3.426 Y-33.914 E0.0007
G1 X-3.317 Y-33.843 E0.0098
G1 X-3.309 Y-33.838 E0.0007
G1 X-2.952 Y-33.591 E0.0325
G1 X-2.945 Y-33.586 E0.0007
G1 X-2.840 Y-33.509 E0.0098
G1 X-2.833 Y-33.503 E0.0007
G1 X-1.653 Y-32.578 E0.1122
G1 X-1.646 Y-32.572 E0.0007
G1 X-1.546 Y-32.489 E0.0097
G1 X-1.539 Y-32.483 E0.0007
G1 X-1.217 Y-32.198 E0.0322
G1 X-1.211 Y-32.192 E0.0007
G1 X-1.116 Y-32.103 E0.0097
G1 X-1.110 Y-32.097 E0.0007
G1 X-0.056 Y-31.043 E0.1115
G1 X-0.050 Y-31.037 E0.0007
G1 X0.039 Y-30.942 E0.0097
G1 X0.045 Y-30.935 E0.0007
G1 X0.332 Y-30.612 E0.0323
G1 X0.338 Y-30.605 E0.0007
G1 X0.421 Y-30.505 E0.0097
G1 X0.427 Y-30.498 E0.0007
G1 X1.349 Y-29.321 E0.1119
G1 X1.354 Y-29.314 E0.0007
G1 X1.431 Y-29.209 E0.0097
G1 X1.437 Y-29.202 E0.0007
G1 X1.682 Y-28.846 E0.0323
