; G-Code generated by Simplify3D(R) Version 3.0.1
; Sep 25, 2015 at 3:24:26 PM
; Settings Summary
;   processName,Rob Replicator2 low Infill High Quality
;   applyToModels,FirgMounts,six_hole_tube_mount
;   profileName,MakerBot Replicator 2 (modified)
;   profileVersion,2015-05-01 08:00:00
;   baseProfile,
;   printMaterial,PLA
;   printQuality,High
;   printExtruders,
;   extruderName,Primary Extruder
;   extruderToolheadNumber,0
;   extruderDiameter,0.4
;   extruderAutoWidth,0
;   extruderWidth,0.4
;   extrusionMultiplier,0.9
;   extruderUseRetract,1
;   extruderRetractionDistance,1
;   extruderExtraRestartDistance,0
;   extruderRetractionZLift,0
;   extruderRetractionSpeed,1200
;   extruderUseCoasting,0
;   extruderCoastingDistance,0.2
;   extruderUseWipe,0
;   extruderWipeDistance,5
;   primaryExtruder,0
;   layerHeight,0.1
;   topSolidLayers,4
;   bottomSolidLayers,4
;   perimeterOutlines,2
;   printPerimetersInsideOut,1
;   startPointOption,2
;   startPointOriginX,0
;   startPointOriginY,0
;   startPointOriginZ,300
;   sequentialIslands,0
;   spiralVaseMode,0
;   firstLayerHeightPercentage,90
;   firstLayerWidthPercentage,100
;   firstLayerUnderspeed,0.5
;   useRaft,1
;   raftExtruder,0
;   raftLayers,3
;   raftOffset,3
;   raftSeparationDistance,0.14
;   raftInfill,85
;   disableRaftBaseLayers,0
;   useSkirt,1
;   skirtExtruder,0
;   skirtLayers,2
;   skirtOutlines,2
;   skirtOffset,4
;   usePrimePillar,0
;   primePillarExtruder,999
;   primePillarWidth,12
;   primePillarLocation,7
;   primePillarSpeedMultiplier,1
;   useOozeShield,0
;   oozeShieldExtruder,999
;   oozeShieldOffset,2
;   oozeShieldOutlines,1
;   oozeShieldSidewallShape,1
;   oozeShieldSidewallAngle,30
;   oozeShieldSpeedMultiplier,1
;   infillExtruder,0
;   internalInfillPattern,Rectilinear
;   externalInfillPattern,Rectilinear
;   infillPercentage,100
;   outlineOverlapPercentage,20
;   infillExtrusionWidthPercentage,100
;   minInfillLength,5
;   infillLayerInterval,1
;   infillAngles,45,-45
;   overlapInfillAngles,0
;   generateSupport,1
;   supportExtruder,0
;   supportInfillPercentage,40
;   supportExtraInflation,0
;   denseSupportLayers,0
;   denseSupportInfillPercentage,70
;   supportLayerInterval,1
;   supportHorizontalPartOffset,0.3
;   supportUpperSeparationLayers,1
;   supportLowerSeparationLayers,1
;   supportType,0
;   supportGridSpacing,4
;   maxOverhangAngle,45
;   supportAngles,0
;   temperatureName,Primary Extruder
;   temperatureNumber,0
;   temperatureSetpointCount,1
;   temperatureSetpointLayers,1
;   temperatureSetpointTemperatures,215
;   temperatureStabilizeAtStartup,0
;   temperatureHeatedBed,0
;   temperatureRelayBetweenLayers,0
;   temperatureRelayBetweenLoops,0
;   fanLayers,1,2
;   fanSpeeds,0,100
;   blipFanToFullPower,0
;   adjustSpeedForCooling,1
;   minSpeedLayerTime,15
;   minCoolingSpeedSlowdown,20
;   increaseFanForCooling,0
;   minFanLayerTime,45
;   maxCoolingFanSpeed,100
;   increaseFanForBridging,0
;   bridgingFanSpeed,100
;   use5D,1
;   relativeEdistances,1
;   allowEaxisZeroing,0
;   independentExtruderAxes,1
;   includeM10123,0
;   stickySupport,1
;   applyToolheadOffsets,0
;   gcodeXoffset,0
;   gcodeYoffset,0
;   gcodeZoffset,0
;   overrideMachineDefinition,1
;   machineTypeOverride,0
;   strokeXoverride,280
;   strokeYoverride,150
;   strokeZoverride,150
;   originOffsetXoverride,140
;   originOffsetYoverride,75
;   originOffsetZoverride,0
;   homeXdirOverride,1
;   homeYdirOverride,1
;   homeZdirOverride,-1
;   flipXoverride,1
;   flipYoverride,-1
;   flipZoverride,1
;   toolheadOffsets,0,0|0,0|0,0|0,0|0,0|0,0
;   overrideFirmwareConfiguration,1
;   firmwareTypeOverride,MakerBot/Sailfish Firmware
;   GPXconfigOverride,r2
;   baudRateOverride,115200
;   overridePrinterModels,1
;   printerModelsOverride,MakerBot_Replicator2.stl
;   startingGcode,; **** Replicator 2 start.gcode ****,M73 P0 ; enable build progress,G162 X Y F3000 ; home XY maximum,G161 Z F1200 ; home Z minimum,G92 Z-5 ; set Z to -5,G1 Z0 ; move Z to 0,G161 Z F100 ; home Z slowly,M132 X Y Z A B ; recall home offsets,G1 X-145 Y-75 Z30 F9000 ; move to wait position off table,G130 X20 Y20 Z20 A20 B20 ; lower stepper Vrefs while heating,M126 S[fan_speed_pwm],M104 S[extruder0_temperature] T0,M133 T0 ; stabilize extruder temperature,G130 X127 Y127 Z40 A127 B127 ; default stepper Vrefs,G92 A0 ; zero extruder,G1 Z0.4 ; position nozzle,G1 E25 F300 ; purge nozzle,G1 X-140 Y-70 Z0.15 F1200 ; slow wipe,G1 X-135 Y-65 Z0.5 F1200 ; lift,G92 A0 ; zero extruder,M73 P1 ;@body (notify GPX body has started),; **** end of start.gcode ****
;   layerChangeGcode,
;   retractionGcode,
;   toolChangeGcode,
;   endingGcode,; **** Replicator 2 end.gcode ****,M73 P100 ; end build progress,G1 Z155 F1000 ; send Z axis to bottom of machine,M104 S0 T0 ; cool down extruder,M127 ; stop blower fan,G162 X Y F3000 ; home XY maximum,M18 ; disable stepper,M72 P1 ; play Ta-Da song,; **** end of end.gcode ****
;   createX3G,1
;   celebration,0
;   celebrationSong,Random Song
;   createMB5G,0
;   postProcessing,
;   defaultSpeed,4800
;   outlineUnderspeed,0.5
;   solidInfillUnderspeed,0.8
;   supportUnderspeed,0.8
;   rapidXYspeed,9000
;   rapidZspeed,1200
;   minBridgingArea,50
;   bridgingExtraInflation,0
;   bridgingExtrusionMultiplier,1
;   bridgingSpeedMultiplier,0.8
;   filamentDiameter,1.75
;   filamentPricePerKg,46
;   filamentDensity,1.25
;   useMinPrintHeight,0
;   minPrintHeight,0
;   useMaxPrintHeight,0
;   maxPrintHeight,0
;   useDiaphragm,0
;   diaphragmLayerInterval,20
;   robustSlicing,1
;   mergeAllIntoSolid,0
;   onlyRetractWhenCrossingOutline,1
;   retractBetweenLayers,1
;   useRetractionMinTravel,0
;   retractionMinTravel,3
;   retractWhileWiping,0
;   onlyWipeOutlines,1
;   avoidCrossingOutline,0
;   maxMovementDetourFactor,3
;   toolChangeRetractionDistance,12
;   toolChangeExtraRestartDistance,-0.5
;   toolChangeRetractionSpeed,600
;   allowThinWallGapFill,1
;   thinWallAllowedOverlapPercentage,10
;   horizontalSizeCompensation,0
G90
M83
; **** Replicator 2 start.gcode ****
M73 P0 ; enable build progress
G162 X Y F3000 ; home XY maximum
G161 Z F1200 ; home Z minimum
G92 Z-5 ; set Z to -5
G1 Z0 ; move Z to 0
G161 Z F100 ; home Z slowly
M132 X Y Z A B ; recall home offsets
G1 X-145 Y-75 Z30 F9000 ; move to wait position off table
G130 X20 Y20 Z20 A20 B20 ; lower stepper Vrefs while heating
M127
M104 S215 T0
M133 T0 ; stabilize extruder temperature
G130 X127 Y127 Z40 A127 B127 ; default stepper Vrefs
G92 A0 ; zero extruder
G1 Z0.4 ; position nozzle
G1 E25 F300 ; purge nozzle
G1 X-140 Y-70 Z0.15 F1200 ; slow wipe
G1 X-135 Y-65 Z0.5 F1200 ; lift
G92 A0 ; zero extruder
M73 P1 ;@body (notify GPX body has started)
; **** end of start.gcode ****
G1 E-1.0000 F1200
G1 Z0.450 F1200
; layer 1, Z = 0.45
M135 T0
; tool H0.500 W0.400
; skirt
G1 X4.761 Y-0.636 F9000
G1 E1.0000 F360
G1 X4.852 Y0.856 E0.1118 F2400
G1 X4.852 Y0.865 E0.0007
G1 X4.856 Y0.994 E0.0097
G1 X4.856 Y1.003 E0.0007
G1 X4.857 Y1.433 E0.0322
G1 X4.856 Y1.443 E0.0007
G1 X4.853 Y1.572 E0.0097
G1 X4.852 Y1.581 E0.0007
G1 X4.762 Y3.086 E0.1129
G1 X4.762 Y3.095 E0.0007
G1 X4.750 Y3.226 E0.0098
G1 X4.749 Y3.235 E0.0007
G1 X4.697 Y3.667 E0.0326
G1 X4.696 Y3.676 E0.0007
G1 X4.676 Y3.805 E0.0098
G1 X4.674 Y3.814 E0.0007
G1 X4.404 Y5.291 E0.1124
G1 X4.402 Y5.300 E0.0007
G1 X4.375 Y5.427 E0.0097
G1 X4.373 Y5.436 E0.0007
G1 X4.360 Y5.487 E0.0040
G1 X25.370 Y5.487 E1.5723
G1 X25.486 Y5.510 E0.0088
G1 X27.065 Y6.164 E0.1279
G1 X27.163 Y6.230 E0.0088
G1 X31.301 Y10.368 E0.4379
G1 X31.367 Y10.466 E0.0088
G1 X32.021 Y12.045 E0.1279
G1 X32.044 Y12.161 E0.0088
G1 X32.044 Y30.551 E1.3762
G1 X32.021 Y30.666 E0.0088
G1 X31.367 Y32.246 E0.1279
G1 X31.301 Y32.344 E0.0088
G1 X27.163 Y36.482 E0.4379
G1 X27.065 Y36.547 E0.0088
G1 X25.486 Y37.202 E0.1279
G1 X25.370 Y37.225 E0.0088
G1 X-5.482 Y37.225 E2.3088
G1 X-5.598 Y37.202 E0.0088
G1 X-6.025 Y37.025 E0.0346
G1 X-25.370 Y37.025 E1.4477
G1 X-25.486 Y37.002 E0.0088
G1 X-27.065 Y36.347 E0.1279
G1 X-27.163 Y36.282 E0.0088
G1 X-31.301 Y32.144 E0.4379
G1 X-31.367 Y32.046 E0.0088
G1 X-32.021 Y30.466 E0.1279
G1 X-32.044 Y30.351 E0.0088
G1 X-32.044 Y12.361 E1.3462
G1 X-32.021 Y12.245 E0.0088
G1 X-31.367 Y10.666 E0.1279
G1 X-31.301 Y10.568 E0.0088
G1 X-30.124 Y9.390 E0.1246
G1 X-30.695 Y8.124 E0.1040
G1 X-30.699 Y8.115 E0.0007
G1 X-30.749 Y7.995 E0.0097
G1 X-30.752 Y7.987 E0.0007
G1 X-30.906 Y7.582 E0.0324
G1 X-30.909 Y7.573 E0.0007
G1 X-30.952 Y7.450 E0.0097
G1 X-30.954 Y7.442 E0.0007
G1 X-31.403 Y6.007 E0.1125
G1 X-31.405 Y5.998 E0.0007
G1 X-31.440 Y5.873 E0.0097
G1 X-31.443 Y5.864 E0.0007
G1 X-31.546 Y5.443 E0.0324
G1 X-31.548 Y5.435 E0.0007
G1 X-31.576 Y5.307 E0.0097
G1 X-31.578 Y5.298 E0.0007
G1 X-31.849 Y3.821 E0.1124
G1 X-31.850 Y3.812 E0.0007
G1 X-31.870 Y3.684 E0.0097
G1 X-31.871 Y3.675 E0.0007
G1 X-31.923 Y3.245 E0.0324
G1 X-31.924 Y3.236 E0.0007
G1 X-31.936 Y3.107 E0.0097
G1 X-31.937 Y3.098 E0.0007
G1 X-32.028 Y1.606 E0.1118
G1 X-32.028 Y1.597 E0.0007
G1 X-32.032 Y1.468 E0.0097
G1 X-32.032 Y1.459 E0.0007
G1 X-32.032 Y1.029 E0.0322
G1 X-32.032 Y1.020 E0.0007
G1 X-32.028 Y0.891 E0.0097
G1 X-32.028 Y0.882 E0.0007
G1 X-31.938 Y-0.624 E0.1129
G1 X-31.938 Y-0.633 E0.0007
G1 X-31.926 Y-0.763 E0.0098
G1 X-31.925 Y-0.772 E0.0007
G1 X-31.873 Y-1.204 E0.0326
G1 X-31.871 Y-1.213 E0.0007
G1 X-31.852 Y-1.342 E0.0098
G1 X-31.850 Y-1.351 E0.0007
G1 X-31.579 Y-2.828 E0.1124
G1 X-31.578 Y-2.837 E0.0007
G1 X-31.550 Y-2.964 E0.0097
G1 X-31.548 Y-2.973 E0.0007
G1 X-31.445 Y-3.393 E0.0323
G1 X-31.443 Y-3.401 E0.0007
G1 X-31.408 Y-3.527 E0.0097
G1 X-31.405 Y-3.535 E0.0007
G1 X-30.959 Y-4.967 E0.1123
G1 X-30.956 Y-4.976 E0.0007
G1 X-30.914 Y-5.099 E0.0097
G1 X-30.911 Y-5.107 E0.0007
G1 X-30.757 Y-5.511 E0.0323
G1 X-30.754 Y-5.520 E0.0007
G1 X-30.704 Y-5.640 E0.0097
G1 X-30.701 Y-5.648 E0.0007
G1 X-30.085 Y-7.016 E0.1123
G1 X-30.081 Y-7.024 E0.0007
G1 X-30.024 Y-7.141 E0.0097
G1 X-30.020 Y-7.149 E0.0007
G1 X-29.820 Y-7.532 E0.0323
G1 X-29.815 Y-7.540 E0.0007
G1 X-29.751 Y-7.653 E0.0097
G1 X-29.747 Y-7.661 E0.0007
G1 X-29.077 Y-8.769 E0.0969
G1 X-29.747 Y-9.877 E0.0969
G1 X-29.751 Y-9.885 E0.0007
G1 X-29.815 Y-9.998 E0.0097
G1 X-29.820 Y-10.006 E0.0007
G1 X-30.020 Y-10.388 E0.0323
G1 X-30.024 Y-10.396 E0.0007
G1 X-30.081 Y-10.513 E0.0097
G1 X-30.085 Y-10.521 E0.0007
G1 X-30.701 Y-11.889 E0.1123
G1 X-30.704 Y-11.898 E0.0007
G1 X-30.754 Y-12.018 E0.0097
G1 X-30.757 Y-12.026 E0.0007
G1 X-30.911 Y-12.430 E0.0323
G1 X-30.914 Y-12.439 E0.0007
G1 X-30.956 Y-12.561 E0.0097
G1 X-30.959 Y-12.570 E0.0007
G1 X-31.405 Y-14.002 E0.1123
G1 X-31.408 Y-14.011 E0.0007
G1 X-31.443 Y-14.136 E0.0097
G1 X-31.445 Y-14.145 E0.0007
G1 X-31.548 Y-14.564 E0.0323
G1 X-31.550 Y-14.573 E0.0007
G1 X-31.578 Y-14.700 E0.0097
G1 X-31.579 Y-14.709 E0.0007
G1 X-31.850 Y-16.186 E0.1124
G1 X-31.852 Y-16.195 E0.0007
G1 X-31.871 Y-16.324 E0.0098
G1 X-31.873 Y-16.333 E0.0007
G1 X-31.925 Y-16.765 E0.0326
G1 X-31.926 Y-16.774 E0.0007
G1 X-31.938 Y-16.905 E0.0098
G1 X-31.938 Y-16.914 E0.0007
G1 X-32.028 Y-18.419 E0.1129
G1 X-32.028 Y-18.428 E0.0007
G1 X-32.032 Y-18.558 E0.0097
G1 X-32.032 Y-18.567 E0.0007
G1 X-32.032 Y-18.997 E0.0322
G1 X-32.032 Y-19.006 E0.0007
G1 X-32.028 Y-19.135 E0.0097
G1 X-32.028 Y-19.144 E0.0007
G1 X-31.937 Y-20.636 E0.1118
G1 X-31.936 Y-20.645 E0.0007
G1 X-31.924 Y-20.774 E0.0097
G1 X-31.923 Y-20.783 E0.0007
G1 X-31.871 Y-21.212 E0.0324
G1 X-31.870 Y-21.221 E0.0007
G1 X-31.850 Y-21.350 E0.0097
G1 X-31.849 Y-21.359 E0.0007
G1 X-31.578 Y-22.836 E0.1124
G1 X-31.576 Y-22.845 E0.0007
G1 X-31.548 Y-22.972 E0.0097
G1 X-31.546 Y-22.981 E0.0007
G1 X-31.443 Y-23.401 E0.0324
G1 X-31.440 Y-23.410 E0.0007
G1 X-31.405 Y-23.535 E0.0097
G1 X-31.403 Y-23.544 E0.0007
G1 X-30.954 Y-24.979 E0.1125
G1 X-30.952 Y-24.988 E0.0007
G1 X-30.909 Y-25.111 E0.0097
G1 X-30.906 Y-25.119 E0.0007
G1 X-30.752 Y-25.524 E0.0324
G1 X-30.749 Y-25.533 E0.0007
G1 X-30.699 Y-25.653 E0.0097
G1 X-30.695 Y-25.661 E0.0007
G1 X-30.078 Y-27.030 E0.1124
G1 X-30.074 Y-27.038 E0.0007
G1 X-30.017 Y-27.154 E0.0096
G1 X-30.013 Y-27.162 E0.0007
G1 X-29.814 Y-27.541 E0.0321
G1 X-29.810 Y-27.549 E0.0007
G1 X-29.746 Y-27.661 E0.0096
G1 X-29.742 Y-27.669 E0.0007
G1 X-28.971 Y-28.945 E0.1115
G1 X-28.966 Y-28.952 E0.0007
G1 X-28.895 Y-29.061 E0.0097
G1 X-28.890 Y-29.069 E0.0007
G1 X-28.645 Y-29.425 E0.0324
G1 X-28.639 Y-29.432 E0.0007
G1 X-28.562 Y-29.537 E0.0097
G1 X-28.557 Y-29.544 E0.0007
G1 X-27.631 Y-30.726 E0.1123
G1 X-27.625 Y-30.733 E0.0007
G1 X-27.542 Y-30.833 E0.0097
G1 X-27.536 Y-30.839 E0.0007
G1 X-27.250 Y-31.163 E0.0323
G1 X-27.244 Y-31.169 E0.0007
G1 X-27.155 Y-31.264 E0.0097
G1 X-27.149 Y-31.270 E0.0007
G1 X-26.089 Y-32.330 E0.1122
G1 X-26.082 Y-32.337 E0.0007
G1 X-25.987 Y-32.426 E0.0097
G1 X-25.981 Y-32.432 E0.0007
G1 X-25.657 Y-32.718 E0.0323
G1 X-25.650 Y-32.724 E0.0007
G1 X-25.551 Y-32.807 E0.0097
G1 X-25.544 Y-32.813 E0.0007
G1 X-24.363 Y-33.738 E0.1123
G1 X-24.355 Y-33.744 E0.0007
G1 X-24.251 Y-33.821 E0.0097
G1 X-24.243 Y-33.826 E0.0007
G1 X-23.888 Y-34.071 E0.0323
G1 X-23.880 Y-34.076 E0.0007
G1 X-23.771 Y-34.147 E0.0097
G1 X-23.764 Y-34.152 E0.0007
G1 X-22.480 Y-34.928 E0.1123
G1 X-22.472 Y-34.932 E0.0007
G1 X-22.359 Y-34.996 E0.0097
G1 X-22.351 Y-35.000 E0.0007
G1 X-21.968 Y-35.201 E0.0323
G1 X-21.960 Y-35.205 E0.0007
G1 X-21.843 Y-35.262 E0.0097
G1 X-21.835 Y-35.266 E0.0007
G1 X-20.467 Y-35.882 E0.1123
G1 X-20.459 Y-35.885 E0.0007
G1 X-20.339 Y-35.935 E0.0097
G1 X-20.330 Y-35.938 E0.0007
G1 X-19.926 Y-36.092 E0.0323
G1 X-19.918 Y-36.095 E0.0007
G1 X-19.795 Y-36.137 E0.0097
G1 X-19.787 Y-36.140 E0.0007
G1 X-18.354 Y-36.586 E0.1123
G1 X-18.346 Y-36.589 E0.0007
G1 X-18.220 Y-36.624 E0.0097
G1 X-18.212 Y-36.626 E0.0007
G1 X-17.792 Y-36.729 E0.0323
G1 X-17.783 Y-36.731 E0.0007
G1 X-17.656 Y-36.759 E0.0097
G1 X-17.647 Y-36.760 E0.0007
G1 X-16.170 Y-37.031 E0.1124
G1 X-16.161 Y-37.033 E0.0007
G1 X-16.032 Y-37.052 E0.0098
G1 X-16.023 Y-37.053 E0.0007
G1 X-15.591 Y-37.106 E0.0325
G1 X-15.582 Y-37.107 E0.0007
G1 X-15.452 Y-37.118 E0.0098
G1 X-15.443 Y-37.119 E0.0007
G1 X-13.937 Y-37.209 E0.1129
G1 X-13.928 Y-37.209 E0.0007
G1 X-13.799 Y-37.213 E0.0097
G1 X-13.790 Y-37.213 E0.0007
G1 X-13.360 Y-37.213 E0.0322
G1 X-13.351 Y-37.213 E0.0007
G1 X-13.222 Y-37.209 E0.0097
G1 X-13.213 Y-37.209 E0.0007
G1 X-11.721 Y-37.118 E0.1118
G1 X-11.712 Y-37.117 E0.0007
G1 X-11.583 Y-37.105 E0.0097
G1 X-11.574 Y-37.104 E0.0007
G1 X-11.144 Y-37.052 E0.0324
G1 X-11.135 Y-37.051 E0.0007
G1 X-11.007 Y-37.031 E0.0097
G1 X-10.998 Y-37.030 E0.0007
G1 X-9.521 Y-36.759 E0.1124
G1 X-9.512 Y-36.757 E0.0007
G1 X-9.385 Y-36.729 E0.0097
G1 X-9.376 Y-36.727 E0.0007
G1 X-8.955 Y-36.623 E0.0324
G1 X-8.946 Y-36.621 E0.0007
G1 X-8.821 Y-36.586 E0.0097
G1 X-8.812 Y-36.584 E0.0007
G1 X-7.377 Y-36.135 E0.1125
G1 X-7.369 Y-36.132 E0.0007
G1 X-7.246 Y-36.090 E0.0097
G1 X-7.237 Y-36.087 E0.0007
G1 X-6.832 Y-35.933 E0.0324
G1 X-6.824 Y-35.930 E0.0007
G1 X-6.704 Y-35.880 E0.0097
G1 X-6.695 Y-35.876 E0.0007
G1 X-5.325 Y-35.258 E0.1125
G1 X-5.317 Y-35.254 E0.0007
G1 X-5.200 Y-35.197 E0.0097
G1 X-5.192 Y-35.193 E0.0007
G1 X-4.809 Y-34.992 E0.0324
G1 X-4.801 Y-34.987 E0.0007
G1 X-4.688 Y-34.923 E0.0097
G1 X-4.680 Y-34.919 E0.0007
G1 X-3.398 Y-34.141 E0.1122
G1 X-3.390 Y-34.136 E0.0007
G1 X-3.282 Y-34.066 E0.0096
G1 X-3.274 Y-34.061 E0.0007
G1 X-2.922 Y-33.818 E0.0321
G1 X-2.914 Y-33.812 E0.0007
G1 X-2.811 Y-33.736 E0.0096
G1 X-2.803 Y-33.731 E0.0007
G1 X-1.631 Y-32.812 E0.1115
G1 X-1.624 Y-32.806 E0.0007
G1 X-1.524 Y-32.723 E0.0097
G1 X-1.517 Y-32.717 E0.0007
G1 X-1.194 Y-32.431 E0.0323
G1 X-1.187 Y-32.425 E0.0007
G1 X-1.093 Y-32.336 E0.0097
G1 X-1.086 Y-32.329 E0.0007
G1 X-0.026 Y-31.269 E0.1122
G1 X-0.020 Y-31.263 E0.0007
G1 X0.069 Y-31.168 E0.0097
G1 X0.075 Y-31.162 E0.0007
G1 X0.362 Y-30.838 E0.0323
G1 X0.367 Y-30.831 E0.0007
G1 X0.451 Y-30.732 E0.0097
G1 X0.456 Y-30.725 E0.0007
G1 X1.382 Y-29.544 E0.1123
G1 X1.387 Y-29.536 E0.0007
G1 X1.464 Y-29.432 E0.0097
G1 X1.469 Y-29.424 E0.0007
G1 X1.715 Y-29.069 E0.0323
G1 X1.720 Y-29.061 E0.0007
G1 X1.790 Y-28.952 E0.0097
