; G-Code generated by Simplify3D(R) Version 3.0.1
; Oct 2, 2015 at 1:25:46 PM
; Settings Summary
;   processName,Process1
;   applyToModels,nine_hole_cap,nine_hole_cap(2)
;   profileName,MakerBot Replicator 2 (modified)
;   profileVersion,2015-05-01 08:00:00
;   baseProfile,
;   printMaterial,PLA
;   printQuality,Fast
;   printExtruders,
;   extruderName,Primary Extruder
;   extruderToolheadNumber,0
;   extruderDiameter,0.4
;   extruderAutoWidth,0
;   extruderWidth,0.4
;   extrusionMultiplier,0.9
;   extruderUseRetract,1
;   extruderRetractionDistance,1
;   extruderExtraRestartDistance,0
;   extruderRetractionZLift,0
;   extruderRetractionSpeed,1200
;   extruderUseCoasting,0
;   extruderCoastingDistance,0.2
;   extruderUseWipe,0
;   extruderWipeDistance,5
;   primaryExtruder,0
;   layerHeight,0.3
;   topSolidLayers,3
;   bottomSolidLayers,3
;   perimeterOutlines,2
;   printPerimetersInsideOut,1
;   startPointOption,2
;   startPointOriginX,0
;   startPointOriginY,0
;   startPointOriginZ,300
;   sequentialIslands,0
;   spiralVaseMode,0
;   firstLayerHeightPercentage,90
;   firstLayerWidthPercentage,100
;   firstLayerUnderspeed,0.5
;   useRaft,1
;   raftExtruder,0
;   raftLayers,3
;   raftOffset,3
;   raftSeparationDistance,0.14
;   raftInfill,85
;   disableRaftBaseLayers,0
;   useSkirt,1
;   skirtExtruder,0
;   skirtLayers,1
;   skirtOutlines,2
;   skirtOffset,4
;   usePrimePillar,0
;   primePillarExtruder,999
;   primePillarWidth,12
;   primePillarLocation,7
;   primePillarSpeedMultiplier,1
;   useOozeShield,0
;   oozeShieldExtruder,999
;   oozeShieldOffset,2
;   oozeShieldOutlines,1
;   oozeShieldSidewallShape,1
;   oozeShieldSidewallAngle,30
;   oozeShieldSpeedMultiplier,1
;   infillExtruder,0
;   internalInfillPattern,Full Honeycomb
;   externalInfillPattern,Concentric
;   infillPercentage,15
;   outlineOverlapPercentage,20
;   infillExtrusionWidthPercentage,100
;   minInfillLength,5
;   infillLayerInterval,1
;   infillAngles,0,120,-120
;   overlapInfillAngles,0
;   generateSupport,1
;   supportExtruder,0
;   supportInfillPercentage,25
;   supportExtraInflation,0
;   denseSupportLayers,0
;   denseSupportInfillPercentage,70
;   supportLayerInterval,1
;   supportHorizontalPartOffset,0.3
;   supportUpperSeparationLayers,1
;   supportLowerSeparationLayers,1
;   supportType,0
;   supportGridSpacing,4
;   maxOverhangAngle,45
;   supportAngles,0
;   temperatureName,Primary Extruder
;   temperatureNumber,0
;   temperatureSetpointCount,1
;   temperatureSetpointLayers,1
;   temperatureSetpointTemperatures,230
;   temperatureStabilizeAtStartup,0
;   temperatureHeatedBed,0
;   temperatureRelayBetweenLayers,0
;   temperatureRelayBetweenLoops,0
;   fanLayers,1,2
;   fanSpeeds,0,100
;   blipFanToFullPower,0
;   adjustSpeedForCooling,1
;   minSpeedLayerTime,15
;   minCoolingSpeedSlowdown,20
;   increaseFanForCooling,0
;   minFanLayerTime,45
;   maxCoolingFanSpeed,100
;   increaseFanForBridging,0
;   bridgingFanSpeed,100
;   use5D,1
;   relativeEdistances,1
;   allowEaxisZeroing,0
;   independentExtruderAxes,1
;   includeM10123,0
;   stickySupport,1
;   applyToolheadOffsets,0
;   gcodeXoffset,0
;   gcodeYoffset,0
;   gcodeZoffset,0
;   overrideMachineDefinition,1
;   machineTypeOverride,0
;   strokeXoverride,280
;   strokeYoverride,150
;   strokeZoverride,150
;   originOffsetXoverride,140
;   originOffsetYoverride,75
;   originOffsetZoverride,0
;   homeXdirOverride,1
;   homeYdirOverride,1
;   homeZdirOverride,-1
;   flipXoverride,1
;   flipYoverride,-1
;   flipZoverride,1
;   toolheadOffsets,0,0|0,0|0,0|0,0|0,0|0,0
;   overrideFirmwareConfiguration,1
;   firmwareTypeOverride,MakerBot/Sailfish Firmware
;   GPXconfigOverride,r2
;   baudRateOverride,115200
;   overridePrinterModels,1
;   printerModelsOverride,MakerBot_Replicator2.stl
;   startingGcode,; **** Replicator 2 start.gcode ****,M73 P0 ; enable build progress,G162 X Y F3000 ; home XY maximum,G161 Z F1200 ; home Z minimum,G92 Z-5 ; set Z to -5,G1 Z0 ; move Z to 0,G161 Z F100 ; home Z slowly,M132 X Y Z A B ; recall home offsets,G1 X-145 Y-75 Z30 F9000 ; move to wait position off table,G130 X20 Y20 Z20 A20 B20 ; lower stepper Vrefs while heating,M126 S[fan_speed_pwm],M104 S[extruder0_temperature] T0,M133 T0 ; stabilize extruder temperature,G130 X127 Y127 Z40 A127 B127 ; default stepper Vrefs,G92 A0 ; zero extruder,G1 Z0.4 ; position nozzle,G1 E25 F300 ; purge nozzle,G1 X-140 Y-70 Z0.15 F1200 ; slow wipe,G1 X-135 Y-65 Z0.5 F1200 ; lift,G92 A0 ; zero extruder,M73 P1 ;@body (notify GPX body has started),; **** end of start.gcode ****
;   layerChangeGcode,
;   retractionGcode,
;   toolChangeGcode,
;   endingGcode,; **** Replicator 2 end.gcode ****,M73 P100 ; end build progress,G1 Z155 F1000 ; send Z axis to bottom of machine,M104 S0 T0 ; cool down extruder,M127 ; stop blower fan,G162 X Y F3000 ; home XY maximum,M18 ; disable stepper,M72 P1 ; play Ta-Da song,; **** end of end.gcode ****
;   createX3G,1
;   celebration,0
;   celebrationSong,Random Song
;   createMB5G,0
;   postProcessing,
;   defaultSpeed,4800
;   outlineUnderspeed,0.5
;   solidInfillUnderspeed,0.8
;   supportUnderspeed,0.8
;   rapidXYspeed,9000
;   rapidZspeed,1200
;   minBridgingArea,50
;   bridgingExtraInflation,0
;   bridgingExtrusionMultiplier,1
;   bridgingSpeedMultiplier,0.8
;   filamentDiameter,1.75
;   filamentPricePerKg,46
;   filamentDensity,1.25
;   useMinPrintHeight,0
;   minPrintHeight,0
;   useMaxPrintHeight,0
;   maxPrintHeight,0
;   useDiaphragm,0
;   diaphragmLayerInterval,20
;   robustSlicing,1
;   mergeAllIntoSolid,0
;   onlyRetractWhenCrossingOutline,1
;   retractBetweenLayers,1
;   useRetractionMinTravel,0
;   retractionMinTravel,3
;   retractWhileWiping,0
;   onlyWipeOutlines,1
;   avoidCrossingOutline,0
;   maxMovementDetourFactor,3
;   toolChangeRetractionDistance,12
;   toolChangeExtraRestartDistance,-0.5
;   toolChangeRetractionSpeed,600
;   allowThinWallGapFill,1
;   thinWallAllowedOverlapPercentage,10
;   horizontalSizeCompensation,0
G90
M83
; **** Replicator 2 start.gcode ****
M73 P0 ; enable build progress
G162 X Y F3000 ; home XY maximum
G161 Z F1200 ; home Z minimum
G92 Z-5 ; set Z to -5
G1 Z0 ; move Z to 0
G161 Z F100 ; home Z slowly
M132 X Y Z A B ; recall home offsets
G1 X-145 Y-75 Z30 F9000 ; move to wait position off table
G130 X20 Y20 Z20 A20 B20 ; lower stepper Vrefs while heating
M127
M104 S230 T0
M133 T0 ; stabilize extruder temperature
G130 X127 Y127 Z40 A127 B127 ; default stepper Vrefs
G92 A0 ; zero extruder
G1 Z0.4 ; position nozzle
G1 E25 F300 ; purge nozzle
G1 X-140 Y-70 Z0.15 F1200 ; slow wipe
G1 X-135 Y-65 Z0.5 F1200 ; lift
G92 A0 ; zero extruder
M73 P1 ;@body (notify GPX body has started)
; **** end of start.gcode ****
G1 E-1.0000 F1200
G1 Z0.450 F1200
; layer 1, Z = 0.45
M135 T0
; tool H0.500 W0.400
; skirt
G1 X2.602 Y-17.829 F9000
G1 E1.0000 F360
G1 X2.673 Y-17.721 E0.0097 F2400
G1 X2.730 Y-17.572 E0.0119
G1 X2.792 Y-17.512 E0.0065
G1 X2.864 Y-17.403 E0.0097
G1 X2.910 Y-17.283 E0.0096
G1 X2.938 Y-17.256 E0.0029
G1 X2.969 Y-17.287 E0.0033
G1 X3.015 Y-17.406 E0.0096
G1 X3.086 Y-17.515 E0.0097
G1 X3.148 Y-17.574 E0.0064
G1 X3.205 Y-17.723 E0.0119
G1 X3.276 Y-17.831 E0.0097
G1 X3.337 Y-17.891 E0.0064
G1 X3.394 Y-18.039 E0.0119
G1 X3.466 Y-18.148 E0.0097
G1 X3.528 Y-18.208 E0.0065
G1 X3.584 Y-18.355 E0.0118
G1 X3.656 Y-18.464 E0.0097
G1 X3.717 Y-18.523 E0.0064
G1 X3.844 Y-18.856 E0.0267
G1 X3.916 Y-18.965 E0.0097
G1 X4.493 Y-19.528 E0.0603
G1 X4.675 Y-19.907 E0.0315
G1 X4.751 Y-20.005 E0.0093
G1 X4.924 Y-20.155 E0.0172
G1 X4.967 Y-20.378 E0.0170
G1 X5.014 Y-20.492 E0.0093
G1 X5.252 Y-20.839 E0.0315
G1 X5.450 Y-21.623 E0.0605
G1 X5.509 Y-21.739 E0.0097
G1 X5.733 Y-22.015 E0.0266
G1 X5.753 Y-22.097 E0.0063
G1 X5.812 Y-22.214 E0.0097
G1 X5.911 Y-22.337 E0.0119
G1 X5.933 Y-22.420 E0.0064
G1 X5.991 Y-22.537 E0.0097
G1 X6.091 Y-22.660 E0.0119
G1 X6.112 Y-22.743 E0.0064
G1 X6.170 Y-22.860 E0.0097
G1 X6.270 Y-22.983 E0.0119
G1 X6.292 Y-23.067 E0.0065
G1 X6.350 Y-23.183 E0.0097
G1 X6.430 Y-23.282 E0.0096
G1 X6.450 Y-23.362 E0.0061
G1 X6.509 Y-23.478 E0.0097
G1 X6.734 Y-23.756 E0.0268
G1 X6.772 Y-23.905 E0.0115
G1 X6.830 Y-24.021 E0.0097
G1 X6.876 Y-24.078 E0.0055
G1 X6.878 Y-24.084 E0.0005
G1 X6.936 Y-24.201 E0.0097
G1 X6.936 Y-24.201 E0.0000
G1 X7.231 Y-25.073 E0.0689
G1 X7.273 Y-25.141 E0.0061
G1 X7.294 Y-25.202 E0.0048
G1 X7.333 Y-25.265 E0.0056
G1 X7.344 Y-25.297 E0.0025
G1 X7.383 Y-25.360 E0.0056
G1 X7.394 Y-25.391 E0.0024
G1 X7.433 Y-25.454 E0.0055
G1 X7.443 Y-25.485 E0.0025
G1 X7.482 Y-25.548 E0.0055
G1 X7.493 Y-25.579 E0.0025
G1 X7.541 Y-25.656 E0.0068
G1 X7.546 Y-25.671 E0.0011
G1 X7.619 Y-25.788 E0.0103
G1 X12.127 Y-30.297 E0.4772
G1 X12.133 Y-30.303 E0.0006
G1 X12.215 Y-30.380 E0.0084
G1 X12.220 Y-30.386 E0.0006
G1 X12.499 Y-30.636 E0.0280
G1 X12.505 Y-30.642 E0.0006
G1 X12.591 Y-30.715 E0.0084
G1 X12.597 Y-30.720 E0.0006
G1 X15.447 Y-33.028 E0.2744
G1 X15.453 Y-33.032 E0.0006
G1 X15.542 Y-33.101 E0.0084
G1 X15.548 Y-33.106 E0.0006
G1 X15.852 Y-33.326 E0.0280
G1 X15.858 Y-33.331 E0.0006
G1 X15.951 Y-33.394 E0.0084
G1 X15.957 Y-33.399 E0.0006
G1 X19.033 Y-35.396 E0.2744
G1 X19.040 Y-35.400 E0.0006
G1 X19.135 Y-35.458 E0.0084
G1 X19.142 Y-35.462 E0.0006
G1 X19.466 Y-35.649 E0.0280
G1 X19.473 Y-35.653 E0.0006
G1 X19.572 Y-35.707 E0.0084
G1 X19.579 Y-35.711 E0.0006
G1 X22.846 Y-37.376 E0.2744
G1 X22.853 Y-37.379 E0.0006
G1 X22.955 Y-37.427 E0.0084
G1 X22.962 Y-37.431 E0.0006
G1 X23.304 Y-37.583 E0.0280
G1 X23.311 Y-37.586 E0.0006
G1 X23.415 Y-37.629 E0.0084
G1 X23.422 Y-37.632 E0.0006
G1 X26.846 Y-38.946 E0.2744
G1 X26.853 Y-38.949 E0.0006
G1 X26.959 Y-38.987 E0.0084
G1 X26.967 Y-38.989 E0.0006
G1 X27.323 Y-39.105 E0.0280
G1 X27.330 Y-39.107 E0.0006
G1 X27.438 Y-39.139 E0.0084
G1 X27.446 Y-39.141 E0.0006
G1 X33.603 Y-40.792 E0.4771
G1 X33.741 Y-40.796 E0.0103
G1 X33.756 Y-40.793 E0.0011
G1 X33.849 Y-40.796 E0.0070
G1 X33.881 Y-40.790 E0.0025
G1 X33.954 Y-40.792 E0.0055
G1 X33.988 Y-40.786 E0.0025
G1 X34.062 Y-40.788 E0.0056
G1 X34.095 Y-40.782 E0.0025
G1 X34.169 Y-40.784 E0.0055
G1 X34.202 Y-40.777 E0.0025
G1 X34.276 Y-40.780 E0.0055
G1 X34.334 Y-40.768 E0.0044
G1 X34.418 Y-40.771 E0.0064
G1 X35.299 Y-40.594 E0.0672
G1 X35.301 Y-40.595 E0.0002
G1 X35.431 Y-40.587 E0.0097
G1 X35.446 Y-40.583 E0.0011
G1 X35.519 Y-40.595 E0.0056
G1 X35.649 Y-40.588 E0.0097
G1 X35.660 Y-40.585 E0.0008
G1 X35.733 Y-40.596 E0.0056
G1 X35.863 Y-40.589 E0.0097
G1 X36.091 Y-40.525 E0.0177
G1 X36.495 Y-40.589 E0.0306
G1 X36.625 Y-40.581 E0.0097
G1 X36.710 Y-40.557 E0.0065
G1 X36.866 Y-40.582 E0.0118
G1 X36.995 Y-40.575 E0.0097
G1 X37.079 Y-40.551 E0.0065
G1 X37.236 Y-40.576 E0.0118
G1 X37.365 Y-40.568 E0.0097
G1 X37.449 Y-40.545 E0.0065
G1 X37.605 Y-40.569 E0.0118
G1 X37.735 Y-40.562 E0.0097
G1 X37.818 Y-40.538 E0.0065
G1 X38.169 Y-40.594 E0.0266
G1 X38.299 Y-40.586 E0.0097
G1 X39.073 Y-40.368 E0.0602
G1 X39.493 Y-40.400 E0.0315
G1 X39.616 Y-40.384 E0.0093
G1 X39.832 Y-40.308 E0.0172
G1 X40.049 Y-40.384 E0.0172
G1 X40.172 Y-40.400 E0.0093
G1 X40.591 Y-40.368 E0.0315
G1 X41.366 Y-40.586 E0.0602
G1 X41.495 Y-40.594 E0.0097
G1 X41.847 Y-40.538 E0.0266
G1 X41.930 Y-40.562 E0.0064
G1 X42.060 Y-40.569 E0.0097
G1 X42.216 Y-40.545 E0.0118
G1 X42.299 Y-40.568 E0.0065
G1 X42.429 Y-40.576 E0.0097
G1 X42.585 Y-40.551 E0.0118
G1 X42.669 Y-40.575 E0.0065
G1 X42.799 Y-40.582 E0.0097
G1 X42.955 Y-40.557 E0.0118
G1 X43.039 Y-40.581 E0.0066
G1 X43.169 Y-40.589 E0.0097
G1 X43.574 Y-40.525 E0.0307
G1 X43.802 Y-40.589 E0.0177
G1 X43.932 Y-40.596 E0.0097
G1 X44.005 Y-40.585 E0.0056
G1 X44.016 Y-40.588 E0.0008
G1 X44.146 Y-40.595 E0.0097
G1 X44.219 Y-40.583 E0.0056
G1 X44.233 Y-40.587 E0.0011
G1 X44.363 Y-40.595 E0.0097
G1 X44.416 Y-40.586 E0.0040
G1 X44.495 Y-40.602 E0.0060
G1 X44.843 Y-40.686 E0.0267
G1 X44.920 Y-40.687 E0.0058
G1 X45.389 Y-40.780 E0.0358
G1 X45.463 Y-40.777 E0.0055
G1 X45.496 Y-40.784 E0.0025
G1 X45.570 Y-40.782 E0.0056
G1 X45.602 Y-40.788 E0.0025
G1 X45.676 Y-40.786 E0.0055
G1 X45.710 Y-40.792 E0.0026
G1 X45.783 Y-40.790 E0.0055
G1 X45.816 Y-40.796 E0.0025
G1 X45.909 Y-40.793 E0.0069
G1 X45.923 Y-40.796 E0.0011
G1 X46.061 Y-40.792 E0.0103
G1 X47.565 Y-40.389 E0.1165
G1 X48.453 Y-40.965 E0.0793
G1 X48.473 Y-40.978 E0.0018
G1 X48.770 Y-41.139 E0.0253
G1 X48.792 Y-41.149 E0.0018
G1 X49.820 Y-41.607 E0.0842
G1 X49.842 Y-41.616 E0.0018
G1 X50.161 Y-41.729 E0.0253
G1 X50.183 Y-41.736 E0.0018
G1 X53.032 Y-42.499 E0.2207
G1 X53.055 Y-42.504 E0.0018
G1 X53.387 Y-42.565 E0.0253
G1 X53.410 Y-42.569 E0.0018
G1 X54.527 Y-42.686 E0.0841
G1 X54.551 Y-42.688 E0.0018
G1 X54.888 Y-42.697 E0.0253
G1 X54.912 Y-42.696 E0.0018
G1 X57.857 Y-42.543 E0.2207
G1 X57.880 Y-42.541 E0.0018
G1 X58.216 Y-42.496 E0.0253
G1 X58.239 Y-42.492 E0.0018
G1 X59.340 Y-42.258 E0.0843
G1 X59.363 Y-42.253 E0.0018
G1 X59.688 Y-42.157 E0.0253
G1 X59.710 Y-42.149 E0.0018
G1 X62.465 Y-41.092 E0.2208
G1 X62.486 Y-41.082 E0.0018
G1 X62.791 Y-40.937 E0.0253
G1 X62.812 Y-40.926 E0.0018
G1 X63.787 Y-40.363 E0.0842
G1 X63.807 Y-40.350 E0.0018
G1 X64.086 Y-40.158 E0.0253
G1 X64.105 Y-40.144 E0.0018
G1 X66.397 Y-38.287 E0.2207
G1 X66.414 Y-38.272 E0.0018
G1 X66.659 Y-38.039 E0.0253
G1 X66.675 Y-38.023 E0.0018
G1 X67.427 Y-37.188 E0.0841
G1 X67.442 Y-37.169 E0.0018
G1 X67.648 Y-36.902 E0.0253
G1 X67.661 Y-36.882 E0.0018
G1 X69.268 Y-34.409 E0.2207
G1 X69.280 Y-34.389 E0.0018
G1 X69.441 Y-34.092 E0.0253
G1 X69.451 Y-34.071 E0.0018
G1 X69.909 Y-33.043 E0.0842
G1 X69.918 Y-33.021 E0.0018
G1 X70.031 Y-32.702 E0.0253
G1 X70.038 Y-32.680 E0.0018
G1 X70.801 Y-29.830 E0.2208
G1 X70.806 Y-29.807 E0.0018
G1 X70.868 Y-29.475 E0.0253
G1 X70.871 Y-29.451 E0.0018
G1 X70.989 Y-28.333 E0.0842
G1 X70.990 Y-28.309 E0.0018
G1 X70.999 Y-27.972 E0.0253
G1 X70.999 Y-27.948 E0.0018
G1 X70.944 Y-26.890 E0.0793
G1 X72.046 Y-25.788 E0.1167
G1 X72.119 Y-25.671 E0.0103
G1 X72.124 Y-25.656 E0.0012
G1 X72.171 Y-25.579 E0.0068
G1 X72.182 Y-25.548 E0.0025
G1 X72.221 Y-25.485 E0.0055
G1 X72.232 Y-25.454 E0.0024
G1 X72.271 Y-25.391 E0.0056
G1 X72.282 Y-25.359 E0.0025
G1 X72.321 Y-25.296 E0.0056
G1 X72.331 Y-25.266 E0.0024
G1 X72.371 Y-25.202 E0.0056
G1 X72.391 Y-25.142 E0.0048
G1 X72.434 Y-25.072 E0.0061
G1 X72.728 Y-24.201 E0.0688
G1 X72.729 Y-24.201 E0.0000
G1 X72.787 Y-24.084 E0.0097
G1 X72.788 Y-24.078 E0.0005
G1 X72.835 Y-24.020 E0.0055
G1 X72.893 Y-23.904 E0.0097
G1 X72.931 Y-23.756 E0.0115
G1 X73.156 Y-23.478 E0.0267
G1 X73.214 Y-23.362 E0.0097
G1 X73.234 Y-23.283 E0.0061
G1 X73.315 Y-23.183 E0.0096
G1 X73.373 Y-23.067 E0.0097
G1 X73.394 Y-22.983 E0.0065
G1 X73.494 Y-22.860 E0.0119
G1 X73.552 Y-22.743 E0.0097
G1 X73.574 Y-22.660 E0.0065
G1 X73.674 Y-22.537 E0.0119
G1 X73.732 Y-22.420 E0.0097
G1 X73.753 Y-22.337 E0.0064
G1 X73.853 Y-22.214 E0.0119
G1 X73.911 Y-22.097 E0.0097
G1 X73.932 Y-22.015 E0.0063
G1 X74.156 Y-21.739 E0.0266
G1 X74.214 Y-21.623 E0.0097
G1 X74.413 Y-20.841 E0.0603
G1 X74.650 Y-20.494 E0.0315
G1 X74.698 Y-20.379 E0.0093
G1 X74.741 Y-20.155 E0.0171
G1 X74.913 Y-20.006 E0.0170
G1 X74.989 Y-19.908 E0.0093
G1 X75.170 Y-19.529 E0.0314
G1 X75.751 Y-18.963 E0.0607
G1 X75.822 Y-18.855 E0.0097
G1 X75.950 Y-18.522 E0.0266
G1 X76.011 Y-18.462 E0.0064
G1 X76.083 Y-18.354 E0.0097
G1 X76.139 Y-18.206 E0.0118
G1 X76.201 Y-18.146 E0.0065
G1 X76.272 Y-18.037 E0.0097
G1 X76.329 Y-17.889 E0.0119
G1 X76.391 Y-17.829 E0.0065
G1 X76.463 Y-17.720 E0.0097
G1 X76.519 Y-17.572 E0.0119
G1 X76.581 Y-17.512 E0.0065
G1 X76.653 Y-17.403 E0.0097
G1 X76.799 Y-17.021 E0.0307
G1 X76.965 Y-16.860 E0.0173
G1 X77.036 Y-16.751 E0.0097
G1 X77.063 Y-16.682 E0.0055
G1 X77.069 Y-16.676 E0.0007
G1 X77.141 Y-16.567 E0.0097
G1 X77.168 Y-16.497 E0.0056
G1 X77.175 Y-16.490 E0.0008
G1 X77.246 Y-16.381 E0.0097
G1 X77.247 Y-16.381 E0.0000
G1 X77.848 Y-15.697 E0.0681
G1 X77.889 Y-15.622 E0.0064
G1 X77.929 Y-15.576 E0.0045
G1 X77.963 Y-15.511 E0.0055
G1 X77.985 Y-15.486 E0.0024
G1 X78.020 Y-15.421 E0.0055
G1 X78.042 Y-15.396 E0.0025
G1 X78.077 Y-15.331 E0.0055
G1 X78.099 Y-15.305 E0.0026
G1 X78.134 Y-15.240 E0.0056
G1 X78.156 Y-15.214 E0.0025
G1 X78.199 Y-15.134 E0.0068
