; G-Code generated by Simplify3D(R) Version 3.0.1
; Sep 23, 2015 at 1:45:29 PM
; Settings Summary
;   processName,Rob Replicator2 low Infill High Quality
;   applyToModels,nine_hole_cap
;   profileName,MakerBot Replicator 2 (modified)
;   profileVersion,2015-05-01 08:00:00
;   baseProfile,
;   printMaterial,PLA
;   printQuality,Medium
;   printExtruders,
;   extruderName,Primary Extruder
;   extruderToolheadNumber,0
;   extruderDiameter,0.4
;   extruderAutoWidth,0
;   extruderWidth,0.4
;   extrusionMultiplier,0.9
;   extruderUseRetract,1
;   extruderRetractionDistance,1
;   extruderExtraRestartDistance,0
;   extruderRetractionZLift,0
;   extruderRetractionSpeed,1200
;   extruderUseCoasting,0
;   extruderCoastingDistance,0.2
;   extruderUseWipe,0
;   extruderWipeDistance,5
;   primaryExtruder,0
;   layerHeight,0.2
;   topSolidLayers,3
;   bottomSolidLayers,3
;   perimeterOutlines,2
;   printPerimetersInsideOut,1
;   startPointOption,2
;   startPointOriginX,0
;   startPointOriginY,0
;   startPointOriginZ,300
;   sequentialIslands,0
;   spiralVaseMode,0
;   firstLayerHeightPercentage,90
;   firstLayerWidthPercentage,100
;   firstLayerUnderspeed,0.5
;   useRaft,1
;   raftExtruder,0
;   raftLayers,3
;   raftOffset,3
;   raftSeparationDistance,0.14
;   raftInfill,85
;   disableRaftBaseLayers,0
;   useSkirt,1
;   skirtExtruder,0
;   skirtLayers,1
;   skirtOutlines,2
;   skirtOffset,4
;   usePrimePillar,0
;   primePillarExtruder,999
;   primePillarWidth,12
;   primePillarLocation,7
;   primePillarSpeedMultiplier,1
;   useOozeShield,0
;   oozeShieldExtruder,999
;   oozeShieldOffset,2
;   oozeShieldOutlines,1
;   oozeShieldSidewallShape,1
;   oozeShieldSidewallAngle,30
;   oozeShieldSpeedMultiplier,1
;   infillExtruder,0
;   internalInfillPattern,Rectilinear
;   externalInfillPattern,Rectilinear
;   infillPercentage,100
;   outlineOverlapPercentage,20
;   infillExtrusionWidthPercentage,100
;   minInfillLength,5
;   infillLayerInterval,1
;   infillAngles,45,-45
;   overlapInfillAngles,0
;   generateSupport,1
;   supportExtruder,0
;   supportInfillPercentage,30
;   supportExtraInflation,0
;   denseSupportLayers,0
;   denseSupportInfillPercentage,70
;   supportLayerInterval,1
;   supportHorizontalPartOffset,0.3
;   supportUpperSeparationLayers,1
;   supportLowerSeparationLayers,1
;   supportType,0
;   supportGridSpacing,4
;   maxOverhangAngle,45
;   supportAngles,0
;   temperatureName,Primary Extruder
;   temperatureNumber,0
;   temperatureSetpointCount,1
;   temperatureSetpointLayers,1
;   temperatureSetpointTemperatures,215
;   temperatureStabilizeAtStartup,0
;   temperatureHeatedBed,0
;   temperatureRelayBetweenLayers,0
;   temperatureRelayBetweenLoops,0
;   fanLayers,1,2
;   fanSpeeds,0,100
;   blipFanToFullPower,0
;   adjustSpeedForCooling,1
;   minSpeedLayerTime,15
;   minCoolingSpeedSlowdown,20
;   increaseFanForCooling,0
;   minFanLayerTime,45
;   maxCoolingFanSpeed,100
;   increaseFanForBridging,0
;   bridgingFanSpeed,100
;   use5D,1
;   relativeEdistances,1
;   allowEaxisZeroing,0
;   independentExtruderAxes,1
;   includeM10123,0
;   stickySupport,1
;   applyToolheadOffsets,0
;   gcodeXoffset,0
;   gcodeYoffset,0
;   gcodeZoffset,0
;   overrideMachineDefinition,1
;   machineTypeOverride,0
;   strokeXoverride,280
;   strokeYoverride,150
;   strokeZoverride,150
;   originOffsetXoverride,140
;   originOffsetYoverride,75
;   originOffsetZoverride,0
;   homeXdirOverride,1
;   homeYdirOverride,1
;   homeZdirOverride,-1
;   flipXoverride,1
;   flipYoverride,-1
;   flipZoverride,1
;   toolheadOffsets,0,0|0,0|0,0|0,0|0,0|0,0
;   overrideFirmwareConfiguration,1
;   firmwareTypeOverride,MakerBot/Sailfish Firmware
;   GPXconfigOverride,r2
;   baudRateOverride,115200
;   overridePrinterModels,1
;   printerModelsOverride,MakerBot_Replicator2.stl
;   startingGcode,; **** Replicator 2 start.gcode ****,M73 P0 ; enable build progress,G162 X Y F3000 ; home XY maximum,G161 Z F1200 ; home Z minimum,G92 Z-5 ; set Z to -5,G1 Z0 ; move Z to 0,G161 Z F100 ; home Z slowly,M132 X Y Z A B ; recall home offsets,G1 X-145 Y-75 Z30 F9000 ; move to wait position off table,G130 X20 Y20 Z20 A20 B20 ; lower stepper Vrefs while heating,M126 S[fan_speed_pwm],M104 S[extruder0_temperature] T0,M133 T0 ; stabilize extruder temperature,G130 X127 Y127 Z40 A127 B127 ; default stepper Vrefs,G92 A0 ; zero extruder,G1 Z0.4 ; position nozzle,G1 E25 F300 ; purge nozzle,G1 X-140 Y-70 Z0.15 F1200 ; slow wipe,G1 X-135 Y-65 Z0.5 F1200 ; lift,G92 A0 ; zero extruder,M73 P1 ;@body (notify GPX body has started),; **** end of start.gcode ****
;   layerChangeGcode,
;   retractionGcode,
;   toolChangeGcode,
;   endingGcode,; **** Replicator 2 end.gcode ****,M73 P100 ; end build progress,G1 Z155 F1000 ; send Z axis to bottom of machine,M104 S0 T0 ; cool down extruder,M127 ; stop blower fan,G162 X Y F3000 ; home XY maximum,M18 ; disable stepper,M72 P1 ; play Ta-Da song,; **** end of end.gcode ****
;   createX3G,1
;   celebration,0
;   celebrationSong,Random Song
;   createMB5G,0
;   postProcessing,
;   defaultSpeed,4800
;   outlineUnderspeed,0.5
;   solidInfillUnderspeed,0.8
;   supportUnderspeed,0.8
;   rapidXYspeed,9000
;   rapidZspeed,1200
;   minBridgingArea,50
;   bridgingExtraInflation,0
;   bridgingExtrusionMultiplier,1
;   bridgingSpeedMultiplier,0.8
;   filamentDiameter,1.75
;   filamentPricePerKg,46
;   filamentDensity,1.25
;   useMinPrintHeight,0
;   minPrintHeight,0
;   useMaxPrintHeight,0
;   maxPrintHeight,0
;   useDiaphragm,0
;   diaphragmLayerInterval,20
;   robustSlicing,1
;   mergeAllIntoSolid,0
;   onlyRetractWhenCrossingOutline,1
;   retractBetweenLayers,1
;   useRetractionMinTravel,0
;   retractionMinTravel,3
;   retractWhileWiping,0
;   onlyWipeOutlines,1
;   avoidCrossingOutline,0
;   maxMovementDetourFactor,3
;   toolChangeRetractionDistance,12
;   toolChangeExtraRestartDistance,-0.5
;   toolChangeRetractionSpeed,600
;   allowThinWallGapFill,1
;   thinWallAllowedOverlapPercentage,10
;   horizontalSizeCompensation,0
G90
M83
; **** Replicator 2 start.gcode ****
M73 P0 ; enable build progress
G162 X Y F3000 ; home XY maximum
G161 Z F1200 ; home Z minimum
G92 Z-5 ; set Z to -5
G1 Z0 ; move Z to 0
G161 Z F100 ; home Z slowly
M132 X Y Z A B ; recall home offsets
G1 X-145 Y-75 Z30 F9000 ; move to wait position off table
G130 X20 Y20 Z20 A20 B20 ; lower stepper Vrefs while heating
M127
M104 S215 T0
M133 T0 ; stabilize extruder temperature
G130 X127 Y127 Z40 A127 B127 ; default stepper Vrefs
G92 A0 ; zero extruder
G1 Z0.4 ; position nozzle
G1 E25 F300 ; purge nozzle
G1 X-140 Y-70 Z0.15 F1200 ; slow wipe
G1 X-135 Y-65 Z0.5 F1200 ; lift
G92 A0 ; zero extruder
M73 P1 ;@body (notify GPX body has started)
; **** end of start.gcode ****
G1 E-1.0000 F1200
G1 Z0.450 F1200
; layer 1, Z = 0.45
M135 T0
; tool H0.500 W0.400
; skirt
G1 X-31.975 Y-20.157 F9000
G1 E1.0000 F360
G1 X-31.972 Y-20.173 E0.0012 F2400
G1 X-31.928 Y-20.287 E0.0091
G1 X-31.811 Y-20.466 E0.0160
G1 X-31.580 Y-21.386 E0.0710
G1 X-31.522 Y-21.503 E0.0097
G1 X-31.346 Y-21.721 E0.0210
G1 X-31.326 Y-21.799 E0.0060
G1 X-31.268 Y-21.915 E0.0097
G1 X-31.154 Y-22.055 E0.0135
G1 X-31.146 Y-22.089 E0.0026
G1 X-31.087 Y-22.205 E0.0097
G1 X-31.035 Y-22.270 E0.0063
G1 X-31.026 Y-22.304 E0.0026
G1 X-30.968 Y-22.420 E0.0097
G1 X-30.916 Y-22.485 E0.0062
G1 X-30.907 Y-22.519 E0.0026
G1 X-30.849 Y-22.635 E0.0097
G1 X-30.796 Y-22.700 E0.0063
G1 X-30.787 Y-22.734 E0.0026
G1 X-30.729 Y-22.850 E0.0097
G1 X-30.677 Y-22.915 E0.0062
G1 X-30.668 Y-22.948 E0.0026
G1 X-30.610 Y-23.065 E0.0097
G1 X-30.557 Y-23.130 E0.0063
G1 X-30.549 Y-23.163 E0.0026
G1 X-30.490 Y-23.280 E0.0097
G1 X-30.099 Y-23.763 E0.0466
G1 X-29.635 Y-25.132 E0.1081
G1 X-29.562 Y-25.249 E0.0103
G1 X-29.471 Y-25.340 E0.0097
G1 X-29.376 Y-25.620 E0.0221
G1 X-29.304 Y-25.737 E0.0103
G1 X-24.782 Y-30.283 E0.4799
G1 X-24.776 Y-30.289 E0.0006
G1 X-24.692 Y-30.369 E0.0086
G1 X-24.687 Y-30.374 E0.0006
G1 X-24.402 Y-30.631 E0.0287
G1 X-24.396 Y-30.637 E0.0006
G1 X-24.308 Y-30.712 E0.0086
G1 X-24.302 Y-30.717 E0.0006
G1 X-21.448 Y-33.028 E0.2748
G1 X-21.442 Y-33.032 E0.0006
G1 X-21.353 Y-33.101 E0.0084
G1 X-21.346 Y-33.106 E0.0006
G1 X-21.043 Y-33.326 E0.0280
G1 X-21.037 Y-33.330 E0.0006
G1 X-20.944 Y-33.394 E0.0084
G1 X-20.938 Y-33.398 E0.0006
G1 X-17.862 Y-35.396 E0.2744
G1 X-17.855 Y-35.400 E0.0006
G1 X-17.759 Y-35.459 E0.0084
G1 X-17.753 Y-35.463 E0.0006
G1 X-17.428 Y-35.650 E0.0280
G1 X-17.422 Y-35.654 E0.0006
G1 X-17.323 Y-35.707 E0.0084
G1 X-17.316 Y-35.711 E0.0006
G1 X-14.048 Y-37.376 E0.2744
G1 X-14.041 Y-37.379 E0.0006
G1 X-13.940 Y-37.428 E0.0084
G1 X-13.932 Y-37.431 E0.0006
G1 X-13.591 Y-37.583 E0.0280
G1 X-13.583 Y-37.586 E0.0006
G1 X-13.479 Y-37.630 E0.0084
G1 X-13.472 Y-37.632 E0.0006
G1 X-10.044 Y-38.948 E0.2748
G1 X-10.037 Y-38.951 E0.0006
G1 X-9.928 Y-38.990 E0.0086
G1 X-9.920 Y-38.992 E0.0006
G1 X-9.555 Y-39.110 E0.0287
G1 X-9.547 Y-39.113 E0.0006
G1 X-9.436 Y-39.145 E0.0086
G1 X-9.429 Y-39.147 E0.0006
G1 X-3.230 Y-40.791 E0.4799
G1 X-3.093 Y-40.795 E0.0103
G1 X-2.803 Y-40.737 E0.0221
G1 X-2.678 Y-40.770 E0.0097
G1 X-2.540 Y-40.775 E0.0103
G1 X-1.124 Y-40.492 E0.1081
G1 X-0.509 Y-40.589 E0.0466
G1 X-0.380 Y-40.582 E0.0097
G1 X-0.346 Y-40.572 E0.0026
G1 X-0.263 Y-40.585 E0.0063
G1 X-0.133 Y-40.578 E0.0097
G1 X-0.100 Y-40.568 E0.0026
G1 X-0.018 Y-40.581 E0.0062
G1 X0.112 Y-40.574 E0.0097
G1 X0.146 Y-40.564 E0.0026
G1 X0.228 Y-40.577 E0.0062
G1 X0.358 Y-40.570 E0.0097
G1 X0.391 Y-40.560 E0.0026
G1 X0.474 Y-40.573 E0.0062
G1 X0.604 Y-40.566 E0.0097
G1 X0.637 Y-40.556 E0.0026
G1 X0.720 Y-40.569 E0.0063
G1 X0.850 Y-40.562 E0.0097
G1 X0.883 Y-40.552 E0.0026
G1 X1.061 Y-40.580 E0.0135
G1 X1.191 Y-40.573 E0.0097
G1 X1.268 Y-40.551 E0.0060
G1 X1.546 Y-40.594 E0.0210
G1 X1.675 Y-40.586 E0.0097
G1 X2.589 Y-40.326 E0.0711
G1 X2.803 Y-40.337 E0.0160
G1 X2.924 Y-40.319 E0.0091
G1 X2.938 Y-40.314 E0.0011
G1 X2.952 Y-40.319 E0.0011
G1 X3.073 Y-40.337 E0.0091
G1 X3.318 Y-40.325 E0.0184
G1 X4.056 Y-40.545 E0.0576
G1 X4.184 Y-40.555 E0.0096
G1 X4.479 Y-40.515 E0.0223
G1 X4.684 Y-40.573 E0.0159
G1 X4.814 Y-40.580 E0.0097
G1 X4.992 Y-40.552 E0.0135
G1 X5.026 Y-40.562 E0.0026
G1 X5.156 Y-40.569 E0.0097
G1 X5.238 Y-40.556 E0.0063
G1 X5.272 Y-40.566 E0.0026
G1 X5.402 Y-40.573 E0.0097
G1 X5.484 Y-40.560 E0.0062
G1 X5.517 Y-40.570 E0.0026
G1 X5.647 Y-40.577 E0.0097
G1 X5.730 Y-40.564 E0.0062
G1 X5.763 Y-40.574 E0.0026
G1 X5.893 Y-40.581 E0.0097
G1 X5.976 Y-40.568 E0.0062
G1 X6.009 Y-40.578 E0.0026
G1 X6.139 Y-40.585 E0.0097
G1 X6.221 Y-40.572 E0.0063
G1 X6.255 Y-40.582 E0.0026
G1 X6.385 Y-40.589 E0.0097
G1 X7.000 Y-40.492 E0.0466
G1 X8.416 Y-40.774 E0.1081
G1 X8.554 Y-40.770 E0.0103
G1 X8.679 Y-40.737 E0.0097
G1 X8.968 Y-40.795 E0.0221
G1 X9.106 Y-40.791 E0.0103
G1 X10.656 Y-40.380 E0.1200
G1 X11.559 Y-40.966 E0.0805
G1 X11.579 Y-40.978 E0.0018
G1 X11.876 Y-41.139 E0.0253
G1 X11.897 Y-41.149 E0.0018
G1 X12.925 Y-41.607 E0.0842
G1 X12.947 Y-41.615 E0.0018
G1 X13.265 Y-41.728 E0.0253
G1 X13.288 Y-41.735 E0.0018
G1 X16.137 Y-42.499 E0.2207
G1 X16.160 Y-42.504 E0.0018
G1 X16.492 Y-42.565 E0.0253
G1 X16.515 Y-42.569 E0.0018
G1 X17.634 Y-42.686 E0.0842
G1 X17.658 Y-42.688 E0.0018
G1 X17.995 Y-42.697 E0.0253
G1 X18.019 Y-42.696 E0.0018
G1 X20.965 Y-42.542 E0.2207
G1 X20.988 Y-42.540 E0.0018
G1 X21.323 Y-42.496 E0.0253
G1 X21.346 Y-42.492 E0.0018
G1 X22.447 Y-42.258 E0.0842
G1 X22.470 Y-42.252 E0.0018
G1 X22.794 Y-42.156 E0.0253
G1 X22.816 Y-42.149 E0.0018
G1 X25.570 Y-41.091 E0.2207
G1 X25.591 Y-41.082 E0.0018
G1 X25.896 Y-40.937 E0.0253
G1 X25.917 Y-40.926 E0.0018
G1 X26.891 Y-40.363 E0.0842
G1 X26.911 Y-40.351 E0.0018
G1 X27.189 Y-40.159 E0.0253
G1 X27.208 Y-40.145 E0.0018
G1 X29.501 Y-38.289 E0.2207
G1 X29.518 Y-38.274 E0.0018
G1 X29.763 Y-38.041 E0.0253
G1 X29.780 Y-38.024 E0.0018
G1 X30.533 Y-37.188 E0.0842
G1 X30.548 Y-37.170 E0.0018
G1 X30.753 Y-36.902 E0.0253
G1 X30.767 Y-36.883 E0.0018
G1 X32.373 Y-34.409 E0.2207
G1 X32.386 Y-34.388 E0.0018
G1 X32.547 Y-34.092 E0.0253
G1 X32.557 Y-34.070 E0.0018
G1 X33.015 Y-33.043 E0.0842
G1 X33.023 Y-33.021 E0.0018
G1 X33.136 Y-32.702 E0.0253
G1 X33.143 Y-32.680 E0.0018
G1 X33.907 Y-29.831 E0.2207
G1 X33.912 Y-29.808 E0.0018
G1 X33.973 Y-29.476 E0.0253
G1 X33.977 Y-29.452 E0.0018
G1 X34.094 Y-28.334 E0.0842
G1 X34.096 Y-28.310 E0.0018
G1 X34.105 Y-27.972 E0.0253
G1 X34.104 Y-27.949 E0.0018
G1 X34.048 Y-26.874 E0.0805
G1 X35.180 Y-25.737 E0.1201
G1 X35.252 Y-25.619 E0.0103
G1 X35.346 Y-25.340 E0.0221
G1 X35.437 Y-25.249 E0.0096
G1 X35.510 Y-25.132 E0.0103
G1 X35.974 Y-23.764 E0.1081
G1 X36.366 Y-23.279 E0.0466
G1 X36.424 Y-23.163 E0.0097
G1 X36.433 Y-23.130 E0.0026
G1 X36.485 Y-23.065 E0.0063
G1 X36.544 Y-22.948 E0.0097
G1 X36.552 Y-22.915 E0.0026
G1 X36.605 Y-22.850 E0.0062
G1 X36.663 Y-22.734 E0.0097
G1 X36.672 Y-22.700 E0.0026
G1 X36.724 Y-22.635 E0.0063
G1 X36.782 Y-22.519 E0.0097
G1 X36.791 Y-22.485 E0.0026
G1 X36.843 Y-22.420 E0.0062
G1 X36.902 Y-22.304 E0.0097
G1 X36.910 Y-22.270 E0.0026
G1 X36.963 Y-22.205 E0.0063
G1 X37.021 Y-22.089 E0.0097
G1 X37.030 Y-22.055 E0.0026
G1 X37.143 Y-21.915 E0.0135
G1 X37.202 Y-21.799 E0.0097
G1 X37.221 Y-21.721 E0.0060
G1 X37.397 Y-21.503 E0.0210
G1 X37.455 Y-21.386 E0.0097
G1 X37.687 Y-20.466 E0.0710
G1 X37.803 Y-20.287 E0.0160
G1 X37.848 Y-20.173 E0.0091
G1 X37.851 Y-20.157 E0.0012
G1 X37.863 Y-20.146 E0.0012
G1 X37.939 Y-20.051 E0.0091
G1 X38.036 Y-19.861 E0.0160
G1 X38.717 Y-19.200 E0.0710
G1 X38.789 Y-19.092 E0.0097
G1 X38.891 Y-18.830 E0.0210
G1 X38.948 Y-18.774 E0.0060
G1 X39.020 Y-18.665 E0.0097
G1 X39.084 Y-18.497 E0.0135
G1 X39.109 Y-18.472 E0.0026
G1 X39.181 Y-18.364 E0.0097
G1 X39.211 Y-18.286 E0.0062
G1 X39.236 Y-18.261 E0.0026
G1 X39.307 Y-18.153 E0.0097
G1 X39.337 Y-18.075 E0.0063
G1 X39.362 Y-18.051 E0.0026
G1 X39.434 Y-17.942 E0.0097
G1 X39.464 Y-17.864 E0.0062
G1 X39.489 Y-17.840 E0.0026
G1 X39.560 Y-17.731 E0.0097
G1 X39.590 Y-17.653 E0.0062
G1 X39.615 Y-17.629 E0.0026
G1 X39.686 Y-17.520 E0.0097
G1 X39.716 Y-17.442 E0.0063
G1 X39.742 Y-17.418 E0.0026
G1 X39.813 Y-17.309 E0.0097
G1 X40.036 Y-16.728 E0.0466
G1 X40.989 Y-15.643 E0.1081
G1 X41.054 Y-15.521 E0.0103
G1 X41.087 Y-15.396 E0.0097
G1 X41.282 Y-15.175 E0.0221
G1 X41.347 Y-15.054 E0.0103
G1 X43.024 Y-8.864 E0.4799
G1 X43.026 Y-8.857 E0.0006
G1 X43.053 Y-8.744 E0.0086
G1 X43.054 Y-8.736 E0.0006
G1 X43.135 Y-8.361 E0.0287
G1 X43.136 Y-8.353 E0.0006
G1 X43.158 Y-8.240 E0.0086
G1 X43.159 Y-8.232 E0.0006
G1 X43.733 Y-4.605 E0.2748
G1 X43.734 Y-4.597 E0.0006
G1 X43.749 Y-4.486 E0.0084
G1 X43.750 Y-4.478 E0.0006
G1 X43.789 Y-4.105 E0.0280
G1 X43.790 Y-4.098 E0.0006
G1 X43.799 Y-3.985 E0.0084
G1 X43.799 Y-3.977 E0.0006
G1 X43.991 Y-0.315 E0.2744
G1 X43.992 Y-0.308 E0.0006
G1 X43.994 Y-0.195 E0.0084
G1 X43.995 Y-0.187 E0.0006
G1 X43.995 Y0.187 E0.0280
G1 X43.994 Y0.195 E0.0006
G1 X43.992 Y0.308 E0.0084
G1 X43.991 Y0.315 E0.0006
G1 X43.799 Y3.977 E0.2744
G1 X43.799 Y3.985 E0.0006
G1 X43.790 Y4.098 E0.0084
G1 X43.789 Y4.105 E0.0006
G1 X43.750 Y4.478 E0.0280
G1 X43.749 Y4.486 E0.0006
G1 X43.734 Y4.597 E0.0084
G1 X43.733 Y4.605 E0.0006
G1 X43.160 Y8.227 E0.2744
G1 X43.158 Y8.235 E0.0006
G1 X43.138 Y8.345 E0.0084
G1 X43.136 Y8.353 E0.0006
G1 X43.058 Y8.719 E0.0280
G1 X43.057 Y8.727 E0.0006
G1 X43.030 Y8.836 E0.0084
G1 X43.029 Y8.844 E0.0006
G1 X42.157 Y12.095 E0.2519
G1 X42.151 Y12.115 E0.0015
G1 X42.056 Y12.394 E0.0221
G1 X42.048 Y12.414 E0.0015
G1 X41.666 Y13.320 E0.0736
G1 X41.657 Y13.339 E0.0015
G1 X41.621 Y13.411 E0.0061
G1 X41.054 Y15.521 E0.1635
G1 X40.989 Y15.642 E0.0103
G1 X40.036 Y16.728 E0.1081
G1 X39.813 Y17.309 E0.0466
G1 X39.742 Y17.418 E0.0097
G1 X39.716 Y17.442 E0.0026
G1 X39.686 Y17.520 E0.0063
G1 X39.615 Y17.629 E0.0097
G1 X39.590 Y17.653 E0.0026
G1 X39.560 Y17.731 E0.0062
G1 X39.489 Y17.840 E0.0097
G1 X39.464 Y17.864 E0.0026
G1 X39.434 Y17.942 E0.0062
G1 X39.362 Y18.051 E0.0097
G1 X39.337 Y18.075 E0.0026
G1 X39.307 Y18.153 E0.0063
G1 X39.236 Y18.261 E0.0097
G1 X39.211 Y18.286 E0.0026
G1 X39.181 Y18.364 E0.0062
G1 X39.109 Y18.472 E0.0097
G1 X39.084 Y18.497 E0.0026
G1 X39.020 Y18.665 E0.0135
