; G-Code generated by Simplify3D(R) Version 3.0.1
; Sep 20, 2015 at 8:30:51 PM
; Settings Summary
;   processName,Rob Replicator2
;   applyToModels,three_hole_cap
;   profileName,MakerBot Replicator 2 (modified)
;   profileVersion,2015-05-01 08:00:00
;   baseProfile,
;   printMaterial,PLA
;   printQuality,Fast
;   printExtruders,
;   extruderName,Primary Extruder
;   extruderToolheadNumber,0
;   extruderDiameter,0.4
;   extruderAutoWidth,0
;   extruderWidth,0.4
;   extrusionMultiplier,0.9
;   extruderUseRetract,1
;   extruderRetractionDistance,1
;   extruderExtraRestartDistance,0
;   extruderRetractionZLift,0
;   extruderRetractionSpeed,1200
;   extruderUseCoasting,0
;   extruderCoastingDistance,0.2
;   extruderUseWipe,0
;   extruderWipeDistance,5
;   primaryExtruder,0
;   layerHeight,0.3
;   topSolidLayers,3
;   bottomSolidLayers,3
;   perimeterOutlines,2
;   printPerimetersInsideOut,1
;   startPointOption,2
;   startPointOriginX,0
;   startPointOriginY,0
;   startPointOriginZ,300
;   sequentialIslands,0
;   spiralVaseMode,0
;   firstLayerHeightPercentage,90
;   firstLayerWidthPercentage,100
;   firstLayerUnderspeed,0.5
;   useRaft,1
;   raftExtruder,0
;   raftLayers,3
;   raftOffset,3
;   raftSeparationDistance,0.14
;   raftInfill,85
;   disableRaftBaseLayers,0
;   useSkirt,1
;   skirtExtruder,0
;   skirtLayers,1
;   skirtOutlines,2
;   skirtOffset,4
;   usePrimePillar,0
;   primePillarExtruder,999
;   primePillarWidth,12
;   primePillarLocation,7
;   primePillarSpeedMultiplier,1
;   useOozeShield,0
;   oozeShieldExtruder,999
;   oozeShieldOffset,2
;   oozeShieldOutlines,1
;   oozeShieldSidewallShape,1
;   oozeShieldSidewallAngle,30
;   oozeShieldSpeedMultiplier,1
;   infillExtruder,0
;   internalInfillPattern,Rectilinear
;   externalInfillPattern,Rectilinear
;   infillPercentage,15
;   outlineOverlapPercentage,20
;   infillExtrusionWidthPercentage,100
;   minInfillLength,5
;   infillLayerInterval,1
;   infillAngles,45,-45
;   overlapInfillAngles,0
;   generateSupport,1
;   supportExtruder,0
;   supportInfillPercentage,25
;   supportExtraInflation,0
;   denseSupportLayers,0
;   denseSupportInfillPercentage,70
;   supportLayerInterval,1
;   supportHorizontalPartOffset,0.3
;   supportUpperSeparationLayers,1
;   supportLowerSeparationLayers,1
;   supportType,0
;   supportGridSpacing,4
;   maxOverhangAngle,45
;   supportAngles,0
;   temperatureName,Primary Extruder
;   temperatureNumber,0
;   temperatureSetpointCount,1
;   temperatureSetpointLayers,1
;   temperatureSetpointTemperatures,230
;   temperatureStabilizeAtStartup,0
;   temperatureHeatedBed,0
;   temperatureRelayBetweenLayers,0
;   temperatureRelayBetweenLoops,0
;   fanLayers,1,2
;   fanSpeeds,0,100
;   blipFanToFullPower,0
;   adjustSpeedForCooling,1
;   minSpeedLayerTime,15
;   minCoolingSpeedSlowdown,20
;   increaseFanForCooling,0
;   minFanLayerTime,45
;   maxCoolingFanSpeed,100
;   increaseFanForBridging,0
;   bridgingFanSpeed,100
;   use5D,1
;   relativeEdistances,1
;   allowEaxisZeroing,0
;   independentExtruderAxes,1
;   includeM10123,0
;   stickySupport,1
;   applyToolheadOffsets,0
;   gcodeXoffset,0
;   gcodeYoffset,0
;   gcodeZoffset,0
;   overrideMachineDefinition,1
;   machineTypeOverride,0
;   strokeXoverride,280
;   strokeYoverride,150
;   strokeZoverride,150
;   originOffsetXoverride,140
;   originOffsetYoverride,75
;   originOffsetZoverride,0
;   homeXdirOverride,1
;   homeYdirOverride,1
;   homeZdirOverride,-1
;   flipXoverride,1
;   flipYoverride,-1
;   flipZoverride,1
;   toolheadOffsets,0,0|0,0|0,0|0,0|0,0|0,0
;   overrideFirmwareConfiguration,1
;   firmwareTypeOverride,MakerBot/Sailfish Firmware
;   GPXconfigOverride,r2
;   baudRateOverride,115200
;   overridePrinterModels,1
;   printerModelsOverride,MakerBot_Replicator2.stl
;   startingGcode,; **** Replicator 2 start.gcode ****,M73 P0 ; enable build progress,G162 X Y F3000 ; home XY maximum,G161 Z F1200 ; home Z minimum,G92 Z-5 ; set Z to -5,G1 Z0 ; move Z to 0,G161 Z F100 ; home Z slowly,M132 X Y Z A B ; recall home offsets,G1 X-145 Y-75 Z30 F9000 ; move to wait position off table,G130 X20 Y20 Z20 A20 B20 ; lower stepper Vrefs while heating,M126 S[fan_speed_pwm],M104 S[extruder0_temperature] T0,M133 T0 ; stabilize extruder temperature,G130 X127 Y127 Z40 A127 B127 ; default stepper Vrefs,G92 A0 ; zero extruder,G1 Z0.4 ; position nozzle,G1 E25 F300 ; purge nozzle,G1 X-140 Y-70 Z0.15 F1200 ; slow wipe,G1 X-135 Y-65 Z0.5 F1200 ; lift,G92 A0 ; zero extruder,M73 P1 ;@body (notify GPX body has started),; **** end of start.gcode ****
;   layerChangeGcode,
;   retractionGcode,
;   toolChangeGcode,
;   endingGcode,; **** Replicator 2 end.gcode ****,M73 P100 ; end build progress,G1 Z155 F1000 ; send Z axis to bottom of machine,M104 S0 T0 ; cool down extruder,M127 ; stop blower fan,G162 X Y F3000 ; home XY maximum,M18 ; disable stepper,M72 P1 ; play Ta-Da song,; **** end of end.gcode ****
;   createX3G,1
;   celebration,0
;   celebrationSong,Random Song
;   createMB5G,0
;   postProcessing,
;   defaultSpeed,4800
;   outlineUnderspeed,0.5
;   solidInfillUnderspeed,0.8
;   supportUnderspeed,0.8
;   rapidXYspeed,9000
;   rapidZspeed,1200
;   minBridgingArea,50
;   bridgingExtraInflation,0
;   bridgingExtrusionMultiplier,1
;   bridgingSpeedMultiplier,0.8
;   filamentDiameter,1.75
;   filamentPricePerKg,46
;   filamentDensity,1.25
;   useMinPrintHeight,0
;   minPrintHeight,0
;   useMaxPrintHeight,0
;   maxPrintHeight,0
;   useDiaphragm,0
;   diaphragmLayerInterval,20
;   robustSlicing,1
;   mergeAllIntoSolid,0
;   onlyRetractWhenCrossingOutline,1
;   retractBetweenLayers,1
;   useRetractionMinTravel,0
;   retractionMinTravel,3
;   retractWhileWiping,0
;   onlyWipeOutlines,1
;   avoidCrossingOutline,0
;   maxMovementDetourFactor,3
;   toolChangeRetractionDistance,12
;   toolChangeExtraRestartDistance,-0.5
;   toolChangeRetractionSpeed,600
;   allowThinWallGapFill,1
;   thinWallAllowedOverlapPercentage,10
;   horizontalSizeCompensation,0
G90
M83
; **** Replicator 2 start.gcode ****
M73 P0 ; enable build progress
G162 X Y F3000 ; home XY maximum
G161 Z F1200 ; home Z minimum
G92 Z-5 ; set Z to -5
G1 Z0 ; move Z to 0
G161 Z F100 ; home Z slowly
M132 X Y Z A B ; recall home offsets
G1 X-145 Y-75 Z30 F9000 ; move to wait position off table
G130 X20 Y20 Z20 A20 B20 ; lower stepper Vrefs while heating
M127
M104 S230 T0
M133 T0 ; stabilize extruder temperature
G130 X127 Y127 Z40 A127 B127 ; default stepper Vrefs
G92 A0 ; zero extruder
G1 Z0.4 ; position nozzle
G1 E25 F300 ; purge nozzle
G1 X-140 Y-70 Z0.15 F1200 ; slow wipe
G1 X-135 Y-65 Z0.5 F1200 ; lift
G92 A0 ; zero extruder
M73 P1 ;@body (notify GPX body has started)
; **** end of start.gcode ****
G1 E-1.0000 F1200
G1 Z0.450 F1200
; layer 1, Z = 0.45
M135 T0
; tool H0.500 W0.400
; skirt
G1 X34.644 Y16.387 F9000
G1 E1.0000 F360
G1 X34.641 Y16.394 E0.0006 F2400
G1 X34.598 Y16.498 E0.0084
G1 X34.595 Y16.505 E0.0006
G1 X34.442 Y16.848 E0.0280
G1 X34.439 Y16.855 E0.0006
G1 X34.390 Y16.956 E0.0084
G1 X34.387 Y16.963 E0.0006
G1 X32.725 Y20.226 E0.2740
G1 X32.721 Y20.233 E0.0006
G1 X32.667 Y20.331 E0.0084
G1 X32.663 Y20.338 E0.0006
G1 X32.476 Y20.662 E0.0280
G1 X32.472 Y20.669 E0.0006
G1 X32.414 Y20.765 E0.0084
G1 X32.409 Y20.772 E0.0006
G1 X30.415 Y23.842 E0.2740
G1 X30.411 Y23.849 E0.0006
G1 X30.347 Y23.942 E0.0084
G1 X30.343 Y23.948 E0.0006
G1 X30.123 Y24.251 E0.0280
G1 X30.118 Y24.257 E0.0006
G1 X30.049 Y24.347 E0.0084
G1 X30.044 Y24.353 E0.0006
G1 X27.752 Y27.184 E0.2726
G1 X27.747 Y27.189 E0.0005
G1 X27.682 Y27.266 E0.0076
G1 X27.677 Y27.272 E0.0005
G1 X27.587 Y27.373 E0.0102
G1 X27.295 Y27.745 E0.0354
G1 X27.283 Y27.759 E0.0013
G1 X27.113 Y27.951 E0.0193
G1 X27.100 Y27.964 E0.0013
G1 X24.767 Y30.298 E0.2470
G1 X24.761 Y30.303 E0.0006
G1 X24.679 Y30.381 E0.0084
G1 X24.674 Y30.386 E0.0006
G1 X24.395 Y30.637 E0.0280
G1 X24.389 Y30.642 E0.0006
G1 X24.304 Y30.715 E0.0084
G1 X24.298 Y30.720 E0.0006
G1 X21.448 Y33.028 E0.2744
G1 X21.442 Y33.032 E0.0006
G1 X21.353 Y33.101 E0.0084
G1 X21.346 Y33.106 E0.0006
G1 X21.044 Y33.326 E0.0280
G1 X21.037 Y33.330 E0.0006
G1 X20.944 Y33.394 E0.0084
G1 X20.938 Y33.398 E0.0006
G1 X17.862 Y35.396 E0.2744
G1 X17.856 Y35.400 E0.0006
G1 X17.760 Y35.459 E0.0084
G1 X17.753 Y35.463 E0.0006
G1 X17.429 Y35.650 E0.0280
G1 X17.422 Y35.654 E0.0006
G1 X17.323 Y35.708 E0.0084
G1 X17.316 Y35.711 E0.0006
G1 X14.048 Y37.376 E0.2744
G1 X14.041 Y37.379 E0.0006
G1 X13.940 Y37.428 E0.0084
G1 X13.933 Y37.431 E0.0006
G1 X13.591 Y37.583 E0.0280
G1 X13.583 Y37.587 E0.0006
G1 X13.479 Y37.630 E0.0084
G1 X13.472 Y37.633 E0.0006
G1 X10.048 Y38.947 E0.2744
G1 X10.041 Y38.949 E0.0006
G1 X9.935 Y38.987 E0.0084
G1 X9.928 Y38.990 E0.0006
G1 X9.571 Y39.105 E0.0280
G1 X9.564 Y39.108 E0.0006
G1 X9.456 Y39.140 E0.0084
G1 X9.448 Y39.142 E0.0006
G1 X6.265 Y39.995 E0.2467
G1 X6.247 Y39.999 E0.0013
G1 X5.998 Y40.050 E0.0191
G1 X5.980 Y40.053 E0.0013
G1 X5.510 Y40.121 E0.0355
G1 X5.398 Y40.145 E0.0086
G1 X5.391 Y40.146 E0.0006
G1 X5.282 Y40.166 E0.0083
G1 X5.274 Y40.168 E0.0006
G1 X1.661 Y40.740 E0.2737
G1 X1.653 Y40.741 E0.0006
G1 X1.542 Y40.755 E0.0084
G1 X1.534 Y40.756 E0.0006
G1 X1.162 Y40.795 E0.0280
G1 X1.154 Y40.796 E0.0006
G1 X1.042 Y40.805 E0.0084
G1 X1.034 Y40.806 E0.0006
G1 X-2.622 Y40.997 E0.2740
G1 X-2.630 Y40.998 E0.0006
G1 X-2.742 Y41.001 E0.0084
G1 X-2.750 Y41.001 E0.0006
G1 X-3.125 Y41.001 E0.0281
G1 X-3.133 Y41.001 E0.0006
G1 X-3.246 Y40.998 E0.0084
G1 X-3.254 Y40.997 E0.0006
G1 X-6.910 Y40.806 E0.2740
G1 X-6.918 Y40.805 E0.0006
G1 X-7.030 Y40.796 E0.0084
G1 X-7.038 Y40.795 E0.0006
G1 X-7.410 Y40.756 E0.0280
G1 X-7.418 Y40.755 E0.0006
G1 X-7.529 Y40.741 E0.0084
G1 X-7.537 Y40.740 E0.0006
G1 X-10.397 Y40.287 E0.2167
G1 X-10.700 Y40.484 E0.0270
G1 X-10.706 Y40.488 E0.0006
G1 X-10.802 Y40.547 E0.0084
G1 X-10.809 Y40.551 E0.0006
G1 X-11.133 Y40.738 E0.0280
G1 X-11.140 Y40.741 E0.0006
G1 X-11.238 Y40.795 E0.0084
G1 X-11.245 Y40.799 E0.0006
G1 X-12.123 Y41.246 E0.0737
G1 X-12.130 Y41.250 E0.0006
G1 X-12.232 Y41.298 E0.0084
G1 X-12.239 Y41.302 E0.0006
G1 X-12.582 Y41.454 E0.0281
G1 X-12.589 Y41.457 E0.0006
G1 X-12.693 Y41.501 E0.0084
G1 X-12.701 Y41.503 E0.0006
G1 X-13.620 Y41.856 E0.0737
G1 X-13.628 Y41.859 E0.0006
G1 X-13.734 Y41.897 E0.0084
G1 X-13.741 Y41.899 E0.0006
G1 X-14.097 Y42.015 E0.0280
G1 X-14.105 Y42.017 E0.0006
G1 X-14.213 Y42.049 E0.0084
G1 X-14.220 Y42.051 E0.0006
G1 X-15.171 Y42.306 E0.0737
G1 X-15.179 Y42.308 E0.0006
G1 X-15.289 Y42.334 E0.0084
G1 X-15.296 Y42.336 E0.0006
G1 X-15.663 Y42.414 E0.0280
G1 X-15.670 Y42.416 E0.0006
G1 X-15.781 Y42.436 E0.0084
G1 X-15.789 Y42.437 E0.0006
G1 X-16.761 Y42.591 E0.0737
G1 X-16.769 Y42.593 E0.0006
G1 X-16.880 Y42.607 E0.0084
G1 X-16.888 Y42.608 E0.0006
G1 X-17.260 Y42.647 E0.0280
G1 X-17.268 Y42.648 E0.0006
G1 X-17.380 Y42.657 E0.0084
G1 X-17.388 Y42.657 E0.0006
G1 X-18.372 Y42.709 E0.0737
G1 X-18.380 Y42.709 E0.0006
G1 X-18.492 Y42.712 E0.0084
G1 X-18.500 Y42.712 E0.0006
G1 X-18.875 Y42.712 E0.0281
G1 X-18.883 Y42.712 E0.0006
G1 X-18.996 Y42.709 E0.0084
G1 X-19.004 Y42.709 E0.0006
G1 X-19.988 Y42.657 E0.0737
G1 X-19.996 Y42.657 E0.0006
G1 X-20.108 Y42.648 E0.0084
G1 X-20.115 Y42.647 E0.0006
G1 X-20.487 Y42.608 E0.0280
G1 X-20.495 Y42.607 E0.0006
G1 X-20.606 Y42.593 E0.0084
G1 X-20.614 Y42.591 E0.0006
G1 X-21.587 Y42.437 E0.0737
G1 X-21.594 Y42.436 E0.0006
G1 X-21.705 Y42.416 E0.0084
G1 X-21.713 Y42.414 E0.0006
G1 X-22.079 Y42.336 E0.0280
G1 X-22.087 Y42.334 E0.0006
G1 X-22.197 Y42.308 E0.0084
G1 X-22.204 Y42.306 E0.0006
G1 X-23.156 Y42.051 E0.0737
G1 X-23.163 Y42.049 E0.0006
G1 X-23.271 Y42.017 E0.0084
G1 X-23.279 Y42.015 E0.0006
G1 X-23.634 Y41.899 E0.0280
G1 X-23.642 Y41.897 E0.0006
G1 X-23.748 Y41.859 E0.0084
G1 X-23.755 Y41.856 E0.0006
G1 X-24.675 Y41.503 E0.0737
G1 X-24.682 Y41.501 E0.0006
G1 X-24.786 Y41.457 E0.0084
G1 X-24.794 Y41.454 E0.0006
G1 X-25.137 Y41.302 E0.0281
G1 X-25.144 Y41.298 E0.0006
G1 X-25.245 Y41.250 E0.0084
G1 X-25.253 Y41.246 E0.0006
G1 X-26.130 Y40.799 E0.0737
G1 X-26.137 Y40.795 E0.0006
G1 X-26.236 Y40.741 E0.0084
G1 X-26.243 Y40.738 E0.0006
G1 X-26.567 Y40.551 E0.0280
G1 X-26.573 Y40.547 E0.0006
G1 X-26.669 Y40.488 E0.0084
G1 X-26.676 Y40.484 E0.0006
G1 X-27.502 Y39.947 E0.0737
G1 X-27.508 Y39.943 E0.0006
G1 X-27.601 Y39.879 E0.0084
G1 X-27.607 Y39.875 E0.0006
G1 X-27.910 Y39.655 E0.0280
G1 X-27.917 Y39.650 E0.0006
G1 X-28.006 Y39.581 E0.0084
G1 X-28.012 Y39.577 E0.0006
G1 X-28.777 Y38.957 E0.0737
G1 X-28.783 Y38.952 E0.0006
G1 X-28.869 Y38.879 E0.0084
G1 X-28.875 Y38.874 E0.0006
G1 X-29.152 Y38.624 E0.0280
G1 X-29.158 Y38.618 E0.0006
G1 X-29.240 Y38.541 E0.0084
G1 X-29.245 Y38.536 E0.0006
G1 X-29.942 Y37.839 E0.0737
G1 X-29.947 Y37.834 E0.0006
G1 X-30.025 Y37.752 E0.0084
G1 X-30.030 Y37.746 E0.0006
G1 X-30.281 Y37.467 E0.0281
G1 X-30.287 Y37.461 E0.0006
G1 X-30.360 Y37.375 E0.0084
G1 X-30.365 Y37.369 E0.0006
G1 X-30.985 Y36.604 E0.0737
G1 X-30.990 Y36.597 E0.0006
G1 X-31.058 Y36.508 E0.0084
G1 X-31.063 Y36.502 E0.0006
G1 X-31.283 Y36.199 E0.0280
G1 X-31.288 Y36.193 E0.0006
G1 X-31.351 Y36.100 E0.0084
G1 X-31.356 Y36.093 E0.0006
G1 X-31.892 Y35.267 E0.0737
G1 X-31.896 Y35.261 E0.0006
G1 X-31.955 Y35.165 E0.0084
G1 X-31.959 Y35.158 E0.0006
G1 X-32.146 Y34.834 E0.0280
G1 X-32.150 Y34.827 E0.0006
G1 X-32.204 Y34.728 E0.0084
G1 X-32.208 Y34.721 E0.0006
G1 X-32.655 Y33.843 E0.0737
G1 X-32.658 Y33.836 E0.0006
G1 X-32.707 Y33.735 E0.0084
G1 X-32.710 Y33.727 E0.0006
G1 X-32.862 Y33.385 E0.0280
G1 X-32.865 Y33.378 E0.0006
G1 X-32.908 Y33.274 E0.0084
G1 X-32.911 Y33.267 E0.0006
G1 X-33.264 Y32.347 E0.0737
G1 X-33.267 Y32.340 E0.0006
G1 X-33.304 Y32.234 E0.0084
G1 X-33.307 Y32.227 E0.0006
G1 X-33.423 Y31.871 E0.0280
G1 X-33.425 Y31.863 E0.0006
G1 X-33.457 Y31.756 E0.0084
G1 X-33.459 Y31.748 E0.0006
G1 X-33.714 Y30.797 E0.0737
G1 X-33.716 Y30.789 E0.0006
G1 X-33.742 Y30.680 E0.0084
G1 X-33.744 Y30.672 E0.0006
G1 X-33.822 Y30.306 E0.0280
G1 X-33.823 Y30.298 E0.0006
G1 X-33.844 Y30.187 E0.0084
G1 X-33.845 Y30.179 E0.0006
G1 X-33.999 Y29.206 E0.0737
G1 X-34.000 Y29.199 E0.0006
G1 X-34.015 Y29.087 E0.0084
G1 X-34.016 Y29.079 E0.0006
G1 X-34.055 Y28.707 E0.0280
G1 X-34.056 Y28.699 E0.0006
G1 X-34.065 Y28.587 E0.0084
G1 X-34.065 Y28.579 E0.0006
G1 X-34.117 Y27.595 E0.0737
G1 X-34.117 Y27.587 E0.0006
G1 X-34.120 Y27.475 E0.0084
G1 X-34.120 Y27.467 E0.0006
G1 X-34.120 Y27.093 E0.0280
G1 X-34.120 Y27.085 E0.0006
G1 X-34.117 Y26.972 E0.0084
G1 X-34.117 Y26.964 E0.0006
G1 X-34.098 Y26.603 E0.0271
G1 X-35.920 Y24.353 E0.2167
G1 X-35.925 Y24.347 E0.0006
G1 X-35.993 Y24.257 E0.0084
G1 X-35.998 Y24.251 E0.0006
G1 X-36.218 Y23.948 E0.0280
G1 X-36.223 Y23.942 E0.0006
G1 X-36.287 Y23.849 E0.0084
G1 X-36.291 Y23.842 E0.0006
G1 X-38.285 Y20.772 E0.2740
G1 X-38.289 Y20.765 E0.0006
G1 X-38.348 Y20.669 E0.0084
G1 X-38.352 Y20.662 E0.0006
G1 X-38.539 Y20.338 E0.0280
G1 X-38.543 Y20.332 E0.0006
G1 X-38.596 Y20.233 E0.0084
G1 X-38.600 Y20.226 E0.0006
G1 X-40.262 Y16.963 E0.2740
G1 X-40.266 Y16.956 E0.0006
G1 X-40.314 Y16.855 E0.0084
G1 X-40.318 Y16.847 E0.0006
G1 X-40.470 Y16.505 E0.0280
G1 X-40.473 Y16.498 E0.0006
G1 X-40.516 Y16.394 E0.0084
G1 X-40.519 Y16.387 E0.0006
G1 X-41.830 Y12.971 E0.2738
G1 X-41.833 Y12.964 E0.0006
G1 X-41.870 Y12.860 E0.0083
G1 X-41.872 Y12.852 E0.0006
G1 X-41.907 Y12.745 E0.0085
G1 X-42.082 Y12.308 E0.0353
G1 X-42.089 Y12.291 E0.0013
G1 X-42.170 Y12.048 E0.0192
G1 X-42.175 Y12.030 E0.0013
G1 X-43.029 Y8.844 E0.2469
G1 X-43.031 Y8.837 E0.0006
G1 X-43.057 Y8.727 E0.0084
G1 X-43.059 Y8.719 E0.0006
G1 X-43.136 Y8.353 E0.0280
G1 X-43.138 Y8.345 E0.0006
G1 X-43.159 Y8.235 E0.0084
G1 X-43.160 Y8.227 E0.0006
G1 X-43.733 Y4.605 E0.2744
G1 X-43.735 Y4.597 E0.0006
G1 X-43.749 Y4.485 E0.0084
G1 X-43.750 Y4.477 E0.0006
G1 X-43.789 Y4.105 E0.0280
G1 X-43.790 Y4.097 E0.0006
G1 X-43.799 Y3.985 E0.0084
G1 X-43.799 Y3.977 E0.0006
G1 X-43.991 Y0.315 E0.2744
G1 X-43.992 Y0.308 E0.0006
G1 X-43.994 Y0.195 E0.0084
G1 X-43.995 Y0.187 E0.0006
G1 X-43.995 Y-0.187 E0.0280
G1 X-43.994 Y-0.195 E0.0006
G1 X-43.992 Y-0.307 E0.0084
G1 X-43.991 Y-0.315 E0.0006
G1 X-43.799 Y-3.977 E0.2744
